; generated by PrusaSlicer 2.9.4 on 2026-01-19 at 18:57:51 UTC


;
;
; 

; external perimeters extrusion width = 0.45mm
; perimeters extrusion width = 0.45mm
; infill extrusion width = 0.45mm
; solid infill extrusion width = 0.45mm
; top infill extrusion width = 0.40mm
; first layer extrusion width = 0.42mm

M73 P0 R80
M73 Q0 S80
M201 X1000 Y1000 Z200 E5000 ; sets maximum accelerations, mm/sec^2
M203 X200 Y200 Z12 E120 ; sets maximum feedrates, mm / sec
M204 S1250 T1250 ; sets acceleration (S) and retract acceleration (R), mm/sec^2
M205 X8.00 Y8.00 Z0.40 E4.50 ; sets the jerk limits, mm/sec
M205 S0 T0 ; sets the minimum extruding and travel feed rate, mm/sec

; printing object Original 3D Benchy.stl id:0 copy 0
; stop printing object Original 3D Benchy.stl id:0 copy 0

;TYPE:Custom
M862.3 P "MK3S" ; printer model check
M862.1 P0.4 ; nozzle diameter check
M115 U3.14.1 ; tell printer latest fw version
G90 ; use absolute coordinates
M83 ; extruder relative mode
M104 S250 ; set extruder temp
M140 S85 ; set bed temp
M190 S85 ; wait for bed temp
M109 S250 ; wait for extruder temp
G28 W ; home all without mesh bed level
G80 X96.1829 Y93.8582 W45.1835 H22.2835 ; mesh bed levelling

G1 Z0.2 F720
G1 Y-3 F1000 ; go outside print area
G92 E0
G1 X60 E9 F1000 ; intro line
G1 X100 E12.5 F1000 ; intro line

G92 E0
M221 S95

; Don't change E values below. Excessive value can damage the printer.

M907 E538 ; set extruder motor current
G21 ; set units to millimeters
G90 ; use absolute coordinates
M83 ; use relative distances for extrusion

M900 K0.08 ; Filament gcode LA 1.5
M900 K45 ; Filament gcode LA 1.0




M107
;LAYER_CHANGE
;Z:0.2
;HEIGHT:0.2
G1 E-1 F2100
G1 Z.4 F720
G1 X97.559 Y96.897 F10800
G1 Z.2 F720
G1 E1 F2100
M204 S800
;TYPE:Skirt/Brim
;WIDTH:0.42
G1 F1200
G1 X98.262 Y96.303 E.02886
G1 X99.185 Y95.835 E.03245
G1 X100.336 Y95.585 E.03693
G1 X125.086 Y94.047 E.77752
G1 X127.383 Y94.2 E.07218
G1 X129.703 Y94.661 E.07416
G1 X131.948 Y95.422 E.07432
G1 X134.087 Y96.479 E.07481
G1 X136.082 Y97.819 E.07535
G1 X137.889 Y99.421 E.07572
G1 X139.484 Y101.277 E.07673
G1 X140.732 Y103.195 E.07175
G1 X141.081 Y104.142 E.03164
G1 X141.175 Y105.159 E.03202
G1 X141.013 Y106.113 E.03034
G1 X140.63 Y106.989 E.02998
G1 X139.51 Y108.688 E.0638
G1 X138.178 Y110.278 E.06504
G1 X136.616 Y111.752 E.06734
G1 X135.006 Y112.952 E.06296
G1 X133.834 Y113.665 E.04301
G1 X132.595 Y114.295 E.04358
G1 X131.285 Y114.837 E.04445
G1 X130.037 Y115.247 E.04119
G1 X127.454 Y115.791 E.08276
G1 X124.816 Y115.952 E.08287
G1 X100.209 Y114.403 E.77306
G1 X99.185 Y114.165 E.03296
G1 X98.363 Y113.762 E.0287
G1 X97.642 Y113.188 E.0289
M73 P0 R79
G1 X97.066 Y112.474 E.02876
G1 X96.574 Y111.413 E.03667
G1 X96.377 Y110.27 E.03637
G1 X96.386 Y99.582 E.33511
G1 X96.574 Y98.589 E.03169
G1 X97.003 Y97.629 E.03297
G1 X97.523 Y96.945 E.02694
M204 S1000
G1 X97.828 Y97.183 F10800
M204 S800
G1 F1200
G1 X97.912 Y97.076 E.00427
G1 X98.569 Y96.554 E.02631
G1 X99.448 Y96.144 E.03041
G1 X100.372 Y95.96 E.02954
G1 X125.085 Y94.424 E.77635
G1 X127.333 Y94.574 E.07064
G1 X129.603 Y95.025 E.07257
G1 X131.806 Y95.771 E.07293
G1 X133.896 Y96.804 E.0731
G1 X135.852 Y98.118 E.07388
G1 X137.622 Y99.688 E.07418
G1 X139.183 Y101.505 E.07511
G1 X140.417 Y103.406 E.07106
G1 X140.74 Y104.354 E.0314
G1 X140.778 Y105.396 E.03269
G1 X140.545 Y106.31 E.02957
G1 X139.997 Y107.307 E.03567
G1 X138.85 Y108.928 E.06226
G1 X137.573 Y110.361 E.06018
G1 X136.145 Y111.651 E.06034
G1 X134.579 Y112.779 E.06051
G1 X132.312 Y114.009 E.08087
G1 X129.901 Y114.893 E.08052
G1 X127.4 Y115.418 E.08013
G1 X124.821 Y115.575 E.08101
G1 X100.245 Y114.027 E.77209
G1 X99.318 Y113.812 E.02984
G1 X98.569 Y113.446 E.02614
G1 X97.912 Y112.924 E.02631
G1 X97.387 Y112.275 E.02617
G1 X96.936 Y111.306 E.03351
G1 X96.754 Y110.257 E.03338
G1 X96.762 Y99.616 E.33364
G1 X96.936 Y98.696 E.02936
G1 X97.323 Y97.827 E.02983
G1 X97.791 Y97.231 E.02376
M204 S1000
;WIPE_START
G1 F8640
G1 X97.828 Y97.183 E-.01399
G1 X97.912 Y97.076 E-.03141
G1 X98.569 Y96.554 E-.19376
G1 X99.448 Y96.144 E-.22396
G1 X100.372 Y95.96 E-.21754
G1 X101.752 Y95.874 E-.31934
;WIPE_END
G1 Z.4 F720
; printing object Original 3D Benchy.stl id:0 copy 0
G1 X124.134 Y108.439 F10800
G1 Z.2 F720
G1 E1 F2100
M204 S800
;TYPE:External perimeter
;WIDTH:0.419999
G1 F1200
G1 X123.937 Y108.44 E.00618
G1 X123.677 Y108.337 E.00877
G1 X123.475 Y108.149 E.00865
;WIDTH:0.424197
G1 X123.389 Y107.891 E.00862
;WIDTH:0.42736
G1 X123.357 Y107.651 E.00774
;WIDTH:0.429965
G1 X123.466 Y107.086 E.01852
G1 X123.722 Y106.535 E.01955
;WIDTH:0.419999
G1 X123.935 Y106.098 E.01524
G1 X124.152 Y105.761 E.01257
G1 X123.384 Y104.405 E.04886
G1 X123.278 Y104.076 E.01084
G1 X123.265 Y103.795 E.00882
G1 X123.38 Y103.468 E.01087
G1 X123.561 Y103.272 E.00837
G1 X123.809 Y103.138 E.00884
G1 X124.138 Y103.085 E.01045
G1 X124.454 Y103.172 E.01028
G1 X124.722 Y103.395 E.01093
G1 X124.911 Y103.735 E.0122
G1 X125.035 Y104.114 E.0125
G1 X125.168 Y104.178 E.00463
G1 X125.332 Y104.087 E.00588
G1 X125.48 Y103.643 E.01467
G1 X125.606 Y103.439 E.00752
G1 X125.874 Y103.196 E.01134
G1 X126.159 Y103.095 E.00948
G1 X126.419 Y103.121 E.00819
G1 X126.712 Y103.284 E.01051
;WIDTH:0.421662
G1 X126.925 Y103.558 E.01093
;WIDTH:0.424327
G1 X126.988 Y103.89 E.01072
;WIDTH:0.43946
G1 X126.938 Y104.32 E.01427
G1 X126.642 Y104.871 E.02062
;WIDTH:0.419999
G1 X126.38 Y105.304 E.01587
G1 X126.2 Y105.708 E.01387
G1 X126.303 Y105.973 E.00891
G1 X126.946 Y107.048 E.03928
G1 X127.088 Y107.451 E.0134
G1 X127.097 Y107.753 E.00947
G1 X127.017 Y108.042 E.0094
G1 X126.85 Y108.27 E.00886
G1 X126.552 Y108.443 E.0108
G1 X126.323 Y108.496 E.00737
G1 X126.074 Y108.49 E.00781
G1 X125.857 Y108.411 E.00724
G1 X125.661 Y108.261 E.00774
G1 X125.467 Y107.962 E.01118
G1 X125.337 Y107.467 E.01605
G1 X125.245 Y107.386 E.00384
G1 X125.075 Y107.309 E.00585
G1 X124.965 Y107.358 E.00378
G1 X124.788 Y107.875 E.01713
G1 X124.499 Y108.298 E.01606
G1 X124.209 Y108.439 E.01011
G1 X124.194 Y108.439 E.00047
M204 S1000
;WIPE_START
G1 F8640
G1 X124.134 Y108.439 E-.01385
G1 X123.937 Y108.44 E-.04549
G1 X123.677 Y108.337 E-.06457
G1 X123.475 Y108.149 E-.06372
G1 X123.389 Y107.891 E-.0628
G1 X123.357 Y107.651 E-.05591
G1 X123.466 Y107.086 E-.13287
G1 X123.722 Y106.535 E-.14029
G1 X123.935 Y106.098 E-.11225
G1 X124.152 Y105.761 E-.09255
G1 X123.691 Y104.948 E-.2157
;WIPE_END
G1 Z.4 F720
G1 X120.532 Y107.768 F10800
G1 Z.2 F720
G1 E1 F2100
M204 S800
G1 F1200
G1 X120.506 Y107.622 E.00465
G1 X120.615 Y107.075 E.01749
;WIDTH:0.381455
G1 X120.813 Y106.657 E.01302
;WIDTH:0.419999
G1 X121.178 Y106.236 E.01747
G1 X121.55 Y106.034 E.01327
G1 X121.818 Y105.993 E.0085
G1 X122.315 Y106.079 E.01581
G1 X122.721 Y106.359 E.01546
G1 X122.939 Y106.677 E.01209
;WIDTH:0.429965
G1 X123.032 Y107.041 E.01209
G1 X122.978 Y107.587 E.01766
;WIDTH:0.42736
G1 X122.904 Y107.973 E.01256
;WIDTH:0.420154
G1 X122.682 Y108.377 E.01446
;WIDTH:0.419999
G1 X122.271 Y108.672 E.01586
G1 X122.023 Y108.745 E.00811
G1 X121.649 Y108.767 E.01175
G1 X121.275 Y108.68 E.01204
G1 X120.847 Y108.408 E.0159
G1 X120.567 Y107.969 E.01633
G1 X120.543 Y107.828 E.00448
M204 S1000
;WIPE_START
G1 F8640
G1 X120.532 Y107.768 E-.01409
G1 X120.506 Y107.622 E-.03424
G1 X120.615 Y107.075 E-.12879
G1 X120.813 Y106.657 E-.1068
G1 X121.178 Y106.236 E-.12866
G1 X121.55 Y106.034 E-.09774
G1 X121.818 Y105.993 E-.0626
G1 X122.315 Y106.079 E-.11646
G1 X122.721 Y106.359 E-.11388
G1 X122.939 Y106.677 E-.08902
G1 X123.032 Y107.041 E-.08675
G1 X123.023 Y107.131 E-.02097
;WIPE_END
G1 Z.4 F720
G1 X116.087 Y108.18 F10800
G1 Z.2 F720
G1 E1 F2100
M204 S800
G1 F1200
G1 X116.04 Y108.15 E.00175
G1 X115.803 Y107.822 E.01269
G1 X115.725 Y107.525 E.00963
;WIDTH:0.457189
G1 X115.705 Y107.243 E.00974
;WIDTH:0.494379
G1 X115.684 Y106.961 E.01062
;WIDTH:0.531568
G1 X115.664 Y106.679 E.01149
;WIDTH:0.53348
G1 X115.664 Y106.148 E.02166
G1 X115.683 Y105.911 E.0097
;WIDTH:0.495653
G1 X115.703 Y105.673 E.00899
;WIDTH:0.457826
G1 X115.722 Y105.436 E.0082
;WIDTH:0.419999
G1 X115.724 Y103.052 E.07475
G1 X115.692 Y102.371 E.02138
G1 X115.816 Y102.019 E.0117
G1 X116.08 Y101.779 E.01119
G1 X116.412 Y101.657 E.01109
G1 X116.736 Y101.624 E.01021
G1 X118.343 Y101.661 E.0504
G1 X118.948 Y101.748 E.01916
G1 X119.453 Y101.906 E.01659
G1 X119.854 Y102.135 E.01448
G1 X120.245 Y102.502 E.01681
G1 X120.577 Y102.98 E.01825
G1 X120.802 Y103.491 E.01751
G1 X120.943 Y104.033 E.01756
G1 X121.012 Y104.533 E.01583
G1 X121.024 Y105.007 E.01487
G1 X120.956 Y105.524 E.01635
G1 X120.587 Y106.379 E.0292
;WIDTH:0.391635
G1 X120.254 Y107.033 E.02128
;WIDTH:0.419999
G1 X120.03 Y107.448 E.01479
G1 X119.724 Y107.798 E.01458
G1 X119.291 Y108.063 E.01592
G1 X118.816 Y108.204 E.01554
G1 X117.858 Y108.294 E.03017
G1 X117.13 Y108.287 E.02283
G1 X116.53 Y108.327 E.01885
G1 X116.223 Y108.266 E.00981
G1 X116.138 Y108.212 E.00316
M204 S1000
;WIPE_START
G1 F8640
G1 X116.087 Y108.18 E-.0139
G1 X116.04 Y108.15 E-.01287
G1 X115.803 Y107.822 E-.09344
G1 X115.725 Y107.525 E-.0709
G1 X115.705 Y107.243 E-.06528
G1 X115.684 Y106.961 E-.06529
G1 X115.664 Y106.679 E-.06528
G1 X115.664 Y106.148 E-.12261
G1 X115.683 Y105.911 E-.0549
G1 X115.703 Y105.673 E-.05515
G1 X115.722 Y105.436 E-.0549
G1 X115.723 Y104.026 E-.32548
;WIPE_END
G1 Z.4 F720
G1 X111.567 Y103.583 F10800
G1 Z.2 F720
G1 E1 F2100
M204 S800
;WIDTH:0.420105
G1 F1200
G1 X111.457 Y103.562 E.00351
;WIDTH:0.419999
G1 X111.142 Y103.354 E.01184
;WIDTH:0.438768
G1 X110.876 Y102.948 E.01598
G1 X110.863 Y102.603 E.01136
;WIDTH:0.435787
G1 X111.017 Y102.144 E.01582
;WIDTH:0.419999
G1 X111.409 Y101.796 E.01644
G1 X111.776 Y101.618 E.01279
G1 X112.141 Y101.517 E.01187
G1 X112.577 Y101.466 E.01376
G1 X113.278 Y101.497 E.022
G1 X113.85 Y101.646 E.01853
G1 X114.324 Y101.932 E.01736
G1 X114.674 Y102.346 E.017
G1 X114.819 Y102.684 E.01153
G1 X114.867 Y103.059 E.01185
G1 X114.861 Y103.342 E.00888
G1 X114.706 Y103.895 E.01801
G1 X114.332 Y104.3 E.01728
G1 X113.949 Y104.512 E.01373
G1 X114.357 Y104.698 E.01406
G1 X114.746 Y105.025 E.01593
G1 X114.977 Y105.472 E.01578
;WIDTH:0.459596
G1 X115.042 Y105.672 E.00729
;WIDTH:0.499193
G1 X115.107 Y105.871 E.00794
;WIDTH:0.53879
G1 X115.171 Y106.071 E.00866
;WIDTH:0.547164
G1 X115.157 Y106.579 E.02131
G1 X115.091 Y106.733 E.00702
;WIDTH:0.504776
G1 X115.025 Y106.888 E.00647
;WIDTH:0.462388
G1 X114.96 Y107.042 E.00583
;WIDTH:0.419999
G1 X114.779 Y107.4 E.01258
G1 X114.36 Y107.908 E.02065
G1 X113.95 Y108.195 E.01569
G1 X113.293 Y108.418 E.02175
G1 X112.845 Y108.464 E.01412
G1 X112.062 Y108.407 E.02462
G1 X111.447 Y108.194 E.02041
G1 X111.132 Y107.961 E.01228
G1 X110.908 Y107.643 E.0122
G1 X110.794 Y107.23 E.01343
G1 X110.821 Y106.92 E.00976
G1 X110.953 Y106.639 E.00973
G1 X111.299 Y106.362 E.0139
G1 X111.738 Y106.277 E.01402
G1 X112.083 Y106.333 E.01096
G1 X112.572 Y106.609 E.01761
G1 X112.773 Y106.745 E.00761
G1 X113.009 Y106.684 E.00764
G1 X113.144 Y106.556 E.00583
G1 X113.216 Y106.28 E.00894
G1 X113.087 Y105.951 E.01108
G1 X112.928 Y105.796 E.00696
G1 X112.608 Y105.623 E.01141
G1 X112.092 Y105.512 E.01655
G1 X111.813 Y105.394 E.0095
G1 X111.608 Y105.195 E.00896
G1 X111.485 Y104.854 E.01137
G1 X111.524 Y104.484 E.01167
;WIDTH:0.420105
G1 X111.763 Y104.05 E.01554
;WIDTH:0.422197
G1 X112.098 Y103.86 E.01215
;WIDTH:0.448057
G1 X112.352 Y103.773 E.00904
;WIDTH:0.473916
G1 X112.607 Y103.686 E.00966
G1 X112.818 Y103.554 E.00892
;WIDTH:0.47333
G1 X112.886 Y103.347 E.0078
G1 X112.786 Y103.237 E.00532
;WIDTH:0.473916
G1 X112.476 Y103.274 E.01119
G1 X112.217 Y103.392 E.0102
;WIDTH:0.448057
G1 X111.958 Y103.509 E.00957
;WIDTH:0.422197
G1 X111.626 Y103.579 E.0107
M204 S1000
;WIPE_START
G1 F8640
G1 X111.567 Y103.583 E-.01365
G1 X111.457 Y103.562 E-.02586
G1 X111.142 Y103.354 E-.08716
G1 X110.876 Y102.948 E-.11208
G1 X110.863 Y102.603 E-.07972
G1 X111.017 Y102.144 E-.11179
G1 X111.409 Y101.796 E-.12104
G1 X111.776 Y101.618 E-.09418
G1 X112.141 Y101.517 E-.08745
G1 X112.577 Y101.466 E-.10136
G1 X113.278 Y101.497 E-.16202
G1 X113.293 Y101.501 E-.00369
;WIPE_END
G1 Z.4 F720
G1 X110.403 Y102.001 F10800
G1 Z.2 F720
G1 E1 F2100
M204 S800
;WIDTH:0.419999
G1 F1200
G1 X110.422 Y102.023 E.00091
;WIDTH:0.423442
G1 X110.488 Y102.232 E.00693
;WIDTH:0.444115
G1 X110.464 Y102.831 E.02
G1 X110.34 Y103.078 E.00922
;WIDTH:0.419999
G1 X110.128 Y103.252 E.0086
G1 X109.639 Y103.401 E.01603
G1 X108.649 Y103.412 E.03104
G1 X108.652 Y107.363 E.12388
G1 X108.591 Y107.692 E.01049
G1 X108.445 Y107.974 E.00996
G1 X108.27 Y108.154 E.00787
G1 X108.018 Y108.277 E.00879
G1 X107.653 Y108.315 E.01151
G1 X107.269 Y108.212 E.01247
G1 X106.985 Y107.97 E.0117
G1 X106.862 Y107.64 E.01104
G1 X106.889 Y106.927 E.02237
G1 X106.873 Y104.147 E.08717
G1 X106.904 Y103.639 E.01596
G1 X106.864 Y103.457 E.00584
G1 X106.646 Y103.384 E.00721
G1 X105.866 Y103.448 E.02454
G1 X105.59 Y103.398 E.00879
G1 X105.289 Y103.224 E.0109
;WIDTH:0.422013
G1 X105.147 Y103.034 E.00748
;WIDTH:0.436975
G1 X105.026 Y102.486 E.01839
G1 X105.1 Y102.114 E.01243
;WIDTH:0.419999
G1 X105.392 Y101.752 E.01458
G1 X105.819 Y101.612 E.01409
G1 X106.502 Y101.646 E.02144
G1 X109.716 Y101.635 E.10077
G1 X110.021 Y101.695 E.00975
G1 X110.25 Y101.821 E.0082
G1 X110.364 Y101.955 E.00552
M204 S1000
;WIPE_START
G1 F8640
G1 X110.403 Y102.001 E-.01393
G1 X110.422 Y102.023 E-.00671
G1 X110.488 Y102.232 E-.05061
G1 X110.464 Y102.831 E-.13842
G1 X110.34 Y103.078 E-.06382
G1 X110.128 Y103.252 E-.06333
G1 X109.639 Y103.401 E-.11804
G1 X108.649 Y103.412 E-.22861
G1 X108.65 Y104.783 E-.31653
;WIPE_END
G1 Z.4 F720
G1 X104.697 Y106.685 F10800
G1 Z.2 F720
G1 E1 F2100
M204 S800
G1 F1200
G1 X104.726 Y106.728 E.00163
G1 X104.772 Y107.1 E.01175
G1 X104.545 Y107.587 E.01685
G1 X104.288 Y107.89 E.01246
G1 X104.041 Y108.088 E.00993
G1 X103.741 Y108.252 E.01072
G1 X103.402 Y108.37 E.01125
G1 X103.024 Y108.44 E.01205
G1 X102.206 Y108.444 E.02565
G1 X101.629 Y108.319 E.01851
G1 X100.934 Y107.971 E.02437
G1 X100.442 Y107.53 E.02072
G1 X100.135 Y107.092 E.01677
;WIDTH:0.446654
G1 X99.918 Y106.589 E.01839
G1 X99.82 Y105.881 E.02399
;WIDTH:0.423163
G1 X99.785 Y105.039 E.02664
;WIDTH:0.420571
G1 X99.814 Y104.123 E.02878
;WIDTH:0.437902
G1 X99.886 Y103.494 E.02079
G1 X100.062 Y103 E.01722
;WIDTH:0.419999
G1 X100.377 Y102.479 E.01909
G1 X100.838 Y102.028 E.02022
G1 X101.399 Y101.699 E.02039
G1 X101.97 Y101.522 E.01874
G1 X102.586 Y101.464 E.0194
G1 X103.1 Y101.497 E.01615
G1 X103.516 Y101.594 E.01339
G1 X103.839 Y101.729 E.01098
G1 X104.163 Y101.938 E.01209
;WIDTH:0.420943
G1 X104.554 Y102.358 E.01804
;WIDTH:0.429702
G1 X104.692 Y102.774 E.0141
G1 X104.683 Y103.173 E.01284
;WIDTH:0.419999
G1 X104.401 Y103.603 E.01612
G1 X104.151 Y103.758 E.00922
G1 X103.819 Y103.797 E.01048
G1 X103.417 Y103.7 E.01297
G1 X102.715 Y103.311 E.02516
G1 X102.429 Y103.287 E.009
G1 X102.071 Y103.396 E.01173
G1 X101.8 Y103.625 E.01112
G1 X101.646 Y103.871 E.0091
G1 X101.535 Y104.296 E.01377
G1 X101.472 Y104.923 E.01976
G1 X101.537 Y105.702 E.02451
G1 X101.713 Y106.19 E.01627
G1 X101.941 Y106.442 E.01066
G1 X102.023 Y106.506 E.00326
G1 X102.393 Y106.626 E.0122
G1 X102.711 Y106.632 E.00997
G1 X102.958 Y106.574 E.00796
G1 X103.384 Y106.223 E.01731
G1 X103.712 Y106.135 E.01065
G1 X104.094 Y106.176 E.01205
G1 X104.513 Y106.41 E.01505
G1 X104.664 Y106.635 E.0085
M204 S1000
;WIPE_START
G1 F8640
G1 X104.697 Y106.685 E-.01383
G1 X104.726 Y106.728 E-.01198
G1 X104.772 Y107.1 E-.08655
G1 X104.545 Y107.587 E-.12407
G1 X104.288 Y107.89 E-.09174
G1 X104.041 Y108.088 E-.0731
G1 X103.741 Y108.252 E-.07895
G1 X103.402 Y108.37 E-.08288
G1 X103.024 Y108.44 E-.08877
G1 X102.206 Y108.444 E-.18888
G1 X101.629 Y108.319 E-.13632
G1 X101.54 Y108.274 E-.02293
;WIPE_END
G1 Z.4 F720
G1 X130.832 Y103.11 F10800
G1 Z.2 F720
G1 E1 F2100
M204 S800
G1 F1200
G1 X131.022 Y103.122 E.00597
G1 X131.266 Y103.249 E.00862
;WIDTH:0.430588
G1 X131.531 Y103.588 E.01387
;WIDTH:0.437389
G1 X131.589 Y103.847 E.00871
G1 X131.57 Y104.422 E.01887
;WIDTH:0.432428
G1 X131.335 Y105.177 E.02561
;WIDTH:0.419999
G1 X131.164 Y105.721 E.01788
G1 X130.207 Y108.397 E.08911
G1 X129.96 Y109.034 E.02142
G1 X129.551 Y109.983 E.0324
