; generated by PrusaSlicer 2.9.4 on 2026-01-17 at 15:32:06 UTC


;
;
; 

; external perimeters extrusion width = 0.45mm
; perimeters extrusion width = 0.45mm
; infill extrusion width = 0.45mm
; solid infill extrusion width = 0.45mm
; top infill extrusion width = 0.40mm
; first layer extrusion width = 0.42mm

M73 P0 R22
M73 Q0 S22
M201 X1000 Y1000 Z200 E5000 ; sets maximum accelerations, mm/sec^2
M203 X200 Y200 Z12 E120 ; sets maximum feedrates, mm / sec
M204 S1250 T1250 ; sets acceleration (S) and retract acceleration (R), mm/sec^2
M205 X8.00 Y8.00 Z0.40 E4.50 ; sets the jerk limits, mm/sec
M205 S0 T0 ; sets the minimum extruding and travel feed rate, mm/sec

; printing object obj_1_3DBenchy.stl id:0 copy 0
; stop printing object obj_1_3DBenchy.stl id:0 copy 0

;TYPE:Custom
M862.3 P "MK3S" ; printer model check
M862.1 P0.4 ; nozzle diameter check
M115 U3.14.1 ; tell printer latest fw version
G90 ; use absolute coordinates
M83 ; extruder relative mode
M104 S250 ; set extruder temp
M140 S85 ; set bed temp
M190 S85 ; wait for bed temp
M109 S250 ; wait for extruder temp
G28 W ; home all without mesh bed level
G80 X115.131 Y97.8718 W25.7727 H14.2564 ; mesh bed levelling

G1 Z0.2 F720
G1 Y-3 F1000 ; go outside print area
G92 E0
G1 X60 E9 F1000 ; intro line
G1 X100 E12.5 F1000 ; intro line
M73 P0 R21

G92 E0
M221 S95

; Don't change E values below. Excessive value can damage the printer.

M907 E538 ; set extruder motor current
G21 ; set units to millimeters
G90 ; use absolute coordinates
M83 ; use relative distances for extrusion

M900 K0.08 ; Filament gcode LA 1.5
M900 K45 ; Filament gcode LA 1.0




M107
;LAYER_CHANGE
;Z:0.2
;HEIGHT:0.2
G1 E-1 F2100
G1 Z.4 F720
G1 X116.547 Y102.201 F10800
G1 Z.2 F720
G1 E1 F2100
M204 S800
;TYPE:Skirt/Brim
;WIDTH:0.42
G1 F1200
M73 Q0 S21
G1 X117.45 Y101.176 E.04283
G1 X118.518 Y100.243 E.04446
G1 X119.637 Y99.498 E.04215
G1 X120.861 Y98.891 E.04284
G1 X122.211 Y98.429 E.04474
G1 X123.627 Y98.148 E.04526
G1 X124.992 Y98.06 E.04289
G1 X137.644 Y98.892 E.39755
G1 X138.567 Y99.121 E.02982
G1 X139.384 Y99.587 E.02949
G1 X139.928 Y100.115 E.02377
G1 X140.319 Y100.707 E.02224
G1 X140.586 Y101.385 E.02285
G1 X140.712 Y102.192 E.02561
G1 X140.697 Y108.021 E.18276
G1 X140.428 Y109.065 E.0338
G1 X139.928 Y109.885 E.03011
G1 X139.562 Y110.265 E.01654
G1 X138.987 Y110.677 E.02218
G1 X138.356 Y110.955 E.02162
G1 X137.832 Y111.083 E.01691
G1 X124.878 Y111.939 E.40705
G1 X123.149 Y111.779 E.05444
G1 X121.461 Y111.34 E.05469
G1 X119.829 Y110.61 E.05606
G1 X118.383 Y109.652 E.05439
G1 X117.524 Y108.897 E.03586
G1 X116.742 Y108.044 E.03628
G1 X116.069 Y107.128 E.03564
G1 X115.57 Y106.242 E.03188
G1 X115.362 Y105.521 E.02353
G1 X115.327 Y104.788 E.02301
G1 X115.458 Y104.068 E.02295
G1 X115.77 Y103.355 E.0244
G1 X116.514 Y102.251 E.04174
M204 S1000
G1 X116.799 Y102.497 F10800
M204 S800
G1 F1200
G1 X117.669 Y101.491 E.0417
G1 X118.655 Y100.614 E.04137
G1 X119.792 Y99.844 E.04306
G1 X121.006 Y99.239 E.04253
G1 X122.288 Y98.799 E.0425
G1 X123.677 Y98.522 E.04441
G1 X124.991 Y98.437 E.04129
G1 X137.608 Y99.267 E.39645
G1 X138.373 Y99.45 E.02466
G1 X139.11 Y99.852 E.02632
G1 X139.601 Y100.312 E.0211
G1 X139.958 Y100.831 E.01975
G1 X140.207 Y101.432 E.0204
G1 X140.327 Y102.077 E.02057
G1 X140.327 Y107.928 E.18345
G1 X140.132 Y108.793 E.0278
G1 X139.732 Y109.524 E.02613
G1 X139.308 Y109.986 E.01966
G1 X138.804 Y110.348 E.01946
G1 X137.768 Y110.711 E.03442
G1 X124.945 Y111.563 E.40294
G1 X123.276 Y111.418 E.05253
M73 Q1 S21
G1 X121.691 Y111.02 E.05124
G1 X120.163 Y110.362 E.05216
G1 X118.796 Y109.494 E.05077
M73 P1 R21
G1 X117.981 Y108.812 E.03332
G1 X117.23 Y108.036 E.03386
G1 X116.531 Y107.138 E.03568
G1 X115.974 Y106.223 E.03359
G1 X115.74 Y105.495 E.02398
G1 X115.701 Y104.848 E.02032
G1 X115.806 Y104.223 E.01987
G1 X116.055 Y103.618 E.02051
G1 X116.762 Y102.544 E.04032
M204 S1000
;WIPE_START
G1 F8640
G1 X116.799 Y102.497 E-.01381
G1 X117.669 Y101.491 E-.3071
G1 X118.655 Y100.614 E-.3047
G1 X119.792 Y99.844 E-.31707
G1 X120.014 Y99.733 E-.05732
;WIPE_END
G1 Z.4 F720
; printing object obj_1_3DBenchy.stl id:0 copy 0
G1 X125.893 Y103.819 F10800
G1 Z.2 F720
G1 E1 F2100
M204 S800
;TYPE:External perimeter
;WIDTH:0.44813
G1 F1200
G1 X125.916 Y103.706 E.00389
M204 S1000
;WIPE_START
G1 F8640
G1 X125.893 Y103.819 E-.02663
;WIPE_END
G1 E-.97337 F2100
G1 Z.4 F720
G1 X127.15 Y104.24 F10800
G1 Z.2 F720
G1 E1 F2100
M204 S800
;WIDTH:0.38292
G1 F1200
G1 X127.257 Y104.028 E.00671
M204 S1000
;WIPE_START
G1 F8640
G1 X127.15 Y104.24 E-.05483
;WIPE_END
G1 E-.94517 F2100
G1 Z.4 F720
G1 X131.219 Y105.762 F10800
G1 Z.2 F720
G1 E1 F2100
M204 S800
;WIDTH:0.629126
G1 F1200
G1 X131.38 Y105.698 E.00844
;WIDTH:0.594476
G1 X131.542 Y105.634 E.00799
M204 S1000
G1 X132.167 Y106.238 F10800
M204 S800
;WIDTH:0.545978
G1 F1200
G1 X132.167 Y106.108 E.00544
M204 S1000
;WIPE_START
G1 F8640
G1 X132.167 Y106.238 E-.03002
;WIPE_END
G1 E-.96998 F2100
G1 Z.4 F720
G1 X137.693 Y104.52 F10800
G1 Z.2 F720
G1 E1 F2100
M204 S800
;WIDTH:0.531652
G1 F1200
G1 X137.709 Y105.263 E.0302
;WIDTH:0.503862
G1 X137.707 Y105.31 E.0018
M204 S1000
;WIPE_START
G1 F8640
G1 X137.709 Y105.263 E-.01086
G1 X137.693 Y104.52 E-.1716
;WIPE_END
G1 E-.81754 F2100
G1 Z.4 F720
G1 X119.598 Y103.466 F10800
G1 Z.2 F720
G1 E1 F2100
M204 S800
;WIDTH:0.391252
G1 F1200
G1 X119.705 Y103.353 E.00451
M204 S1000
;WIPE_START
G1 F8640
G1 X119.598 Y103.466 E-.03593
;WIPE_END
G1 E-.96407 F2100
G1 Z.4 F720
G1 X124.954 Y103.086 F10800
G1 Z.2 F720
G1 E1 F2100
M204 S800
;TYPE:Perimeter
;WIDTH:0.419999
G1 F1200
G1 X124.666 Y102.912 E.01055
G1 X124.328 Y102.883 E.01064
G1 X124.406 Y102.735 E.00525
G1 X124.429 Y102.321 E.013
G1 X124.312 Y102.02 E.01013
G1 X124.137 Y101.81 E.00857
G1 X123.771 Y101.62 E.01293
G1 X124.202 Y101.561 E.01364
G1 X125.021 Y101.502 E.02575
G1 X134.95 Y102.104 E.31189
;WIDTH:0.443927
G1 X135.738 Y102.164 E.02635
;WIDTH:0.490723
G1 X135.845 Y102.194 E.00414
;WIDTH:0.537519
G1 X135.952 Y102.224 E.00457
;WIDTH:0.584314
G1 X136.059 Y102.253 E.00499
;WIDTH:0.585256
G1 X136.527 Y102.282 E.02115
;WIDTH:0.62517
G1 X137.192 Y102.377 E.03252
G1 X137.268 Y102.624 E.01251
G1 X137.268 Y103.077 E.02193
G1 X137.009 Y102.95 E.01397
G1 X136.622 Y102.84 E.01948
;WIDTH:0.59532
G1 X136.079 Y102.809 E.02498
;WIDTH:0.584314
G1 X135.951 Y102.856 E.00614
;WIDTH:0.543236
G1 X135.823 Y102.904 E.00569
;WIDTH:0.502157
G1 X135.694 Y102.951 E.00524
;WIDTH:0.461078
G1 X135.566 Y102.998 E.00474
;WIDTH:0.419999
G1 X135.117 Y103.256 E.01624
G1 X134.812 Y103.69 E.01663
G1 X134.75 Y103.995 E.00976
;WIDTH:0.405512
G1 X134.806 Y104.297 E.00926
;WIDTH:0.419999
G1 X135.042 Y104.613 E.01237
G1 X135.199 Y104.709 E.00577
;WIDTH:0.435979
G1 X135.478 Y104.814 E.00974
;WIDTH:0.473176
G1 X135.64 Y104.809 E.0058
;WIDTH:0.510373
G1 X135.802 Y104.804 E.0063
;WIDTH:0.547569
G1 X135.965 Y104.8 E.00684
G1 X136.224 Y104.637 E.01284
G1 X136.297 Y104.816 E.00811
G1 X136.31 Y105.131 E.01323
G1 X136.244 Y105.391 E.01126
G1 X135.952 Y105.265 E.01334
G1 X135.801 Y105.246 E.00639
;WIDTH:0.510598
G1 X135.651 Y105.227 E.00588
;WIDTH:0.473626
G1 X135.5 Y105.208 E.00545
;WIDTH:0.436654
G1 X135.158 Y105.339 E.01199
;WIDTH:0.419999
G1 X134.962 Y105.499 E.00793
G1 X134.773 Y105.422 E.0064
G1 X134.441 Y105.399 E.01043
G1 X134.419 Y104.112 E.04036
G1 X134.429 Y103.594 E.01624
G1 X134.311 Y103.281 E.01049
G1 X134.018 Y103.055 E.0116
G1 X133.666 Y102.96 E.01143
G1 X133.372 Y103.013 E.00937
G1 X133.054 Y103.19 E.01141
G1 X132.945 Y103.32 E.00532
G1 X132.827 Y103.647 E.0109
;WIDTH:0.409349
G1 X132.798 Y104.19 E.01657
;WIDTH:0.452548
G1 X132.778 Y104.343 E.00526
;WIDTH:0.495746
G1 X132.757 Y104.496 E.00581
;WIDTH:0.538945
G1 X132.736 Y104.649 E.00637
;WIDTH:0.582143
G1 X132.715 Y104.801 E.00688
G1 X132.723 Y105.338 E.02408
;WIDTH:0.570185
G1 X132.504 Y105.371 E.00971
G1 X132.227 Y105.458 E.01273
G1 X132.185 Y105.384 E.00373
;WIDTH:0.582143
G1 X132.183 Y104.864 E.02332
G1 X132.112 Y104.693 E.0083
G1 X132.271 Y104.597 E.00833
G1 X132.311 Y104.501 E.00466
;WIDTH:0.536433
G1 X132.352 Y104.406 E.00425
;WIDTH:0.490723
G1 X132.393 Y104.31 E.00389
;WIDTH:0.445013
G1 X132.428 Y104.164 E.00502
;WIDTH:0.417322
G1 X132.463 Y104.018 E.00467
;WIDTH:0.407634
G1 X132.42 Y103.639 E.01157
;WIDTH:0.419999
G1 X132.302 Y103.36 E.0095
G1 X132.079 Y103.148 E.00965
G1 X131.633 Y102.945 E.01536
G1 X131.109 Y102.886 E.01653
G1 X130.6 Y102.965 E.01615
G1 X130.4 Y103.045 E.00675
G1 X130.11 Y103.231 E.0108
G1 X129.928 Y103.409 E.00798
G1 X129.794 Y103.193 E.00797
G1 X129.578 Y103.052 E.00809
G1 X129.188 Y102.955 E.0126
G1 X128.304 Y102.984 E.02773
G1 X127.853 Y103.065 E.01437
G1 X127.519 Y103.227 E.01164
G1 X127.376 Y103.046 E.00723
G1 X127.061 Y102.83 E.01198
G1 X126.608 Y102.734 E.01452
G1 X126.229 Y102.807 E.0121
G1 X125.906 Y103.001 E.01181
G1 X125.485 Y102.873 E.0138
G1 X125.216 Y102.923 E.00858
G1 X125.005 Y103.054 E.00779
M204 S1000
;WIPE_START
G1 F8640
G1 X124.954 Y103.086 E-.0139
G1 X124.666 Y102.912 E-.07769
G1 X124.328 Y102.883 E-.07833
G1 X124.406 Y102.735 E-.03863
G1 X124.429 Y102.321 E-.09574
G1 X124.312 Y102.02 E-.07457
G1 X124.137 Y101.81 E-.06312
G1 X123.771 Y101.62 E-.09522
G1 X124.202 Y101.561 E-.10045
G1 X125.021 Y101.502 E-.1896
G1 X125.768 Y101.547 E-.17275
;WIPE_END
G1 Z.4 F720
G1 X121.936 Y103.453 F10800
G1 Z.2 F720
G1 E1 F2100
M204 S800
G1 F1200
G1 X121.919 Y103.39 E.00205
G1 X121.761 Y103.128 E.00959
G1 X121.609 Y102.991 E.00642
G1 X121.358 Y102.89 E.00848
G1 X120.853 Y102.865 E.01585
G1 X121.516 Y102.428 E.0249
G1 X122.074 Y102.149 E.01956
G1 X122.768 Y101.867 E.02349
G1 X122.57 Y102.061 E.00869
G1 X122.333 Y102.441 E.01404
G1 X121.958 Y103.397 E.0322
M204 S1000
;WIPE_START
G1 F8640
G1 X121.936 Y103.453 E-.01389
G1 X121.919 Y103.39 E-.01507
G1 X121.761 Y103.128 E-.07065
G1 X121.609 Y102.991 E-.04725
G1 X121.358 Y102.89 E-.06247
G1 X120.853 Y102.865 E-.11675
G1 X121.516 Y102.428 E-.18335
G1 X122.074 Y102.149 E-.14405
G1 X122.768 Y101.867 E-.17297
G1 X122.57 Y102.061 E-.06401
G1 X122.333 Y102.441 E-.10341
G1 X122.323 Y102.466 E-.00613
;WIPE_END
G1 Z.4 F720
G1 X120.399 Y106.341 F10800
G1 Z.2 F720
G1 E1 F2100
M204 S800
G1 F1200
G1 X121.107 Y106.343 E.0222
G1 X121.385 Y106.297 E.00884
G1 X121.618 Y106.187 E.00808
G1 X121.808 Y106.286 E.00672
G1 X122.172 Y106.335 E.01152
G1 X122.512 Y106.173 E.01181
G1 X122.714 Y105.966 E.00907
G1 X122.829 Y106.097 E.00547
G1 X123.038 Y106.25 E.00812
G1 X123.358 Y106.34 E.01042
G1 X123.699 Y106.305 E.01075
G1 X123.93 Y106.183 E.00819
G1 X123.981 Y106.218 E.00194
G1 X124.346 Y106.34 E.01207
G1 X124.608 Y106.311 E.00826
G1 X124.905 Y106.143 E.0107
G1 X125.15 Y106.286 E.00889
G1 X125.439 Y106.346 E.00925
G1 X125.806 Y106.26 E.01182
G1 X126.077 Y106.035 E.01104
G1 X126.212 Y105.809 E.00825
;WIDTH:0.434821
G1 X126.243 Y105.444 E.01194
;WIDTH:0.458885
G1 X126.18 Y105.165 E.00989
G1 X125.892 Y104.653 E.02032
G1 X126.117 Y104.801 E.00931
G1 X126.561 Y104.917 E.01587
G1 X126.612 Y105.286 E.01288
;WIDTH:0.429253
G1 X126.724 Y105.838 E.01809
;WIDTH:0.419999
G1 X126.917 Y106.271 E.01486
G1 X127.292 Y106.695 E.01775
G1 X127.671 Y106.911 E.01368
G1 X128.243 Y107.044 E.01841
G1 X129.069 Y107.07 E.02591
G1 X129.529 Y106.982 E.01468
G1 X129.793 Y106.838 E.00943
G1 X129.933 Y106.656 E.0072
G1 X130.261 Y106.943 E.01367
G1 X130.646 Y107.097 E.013
G1 X131.096 Y107.15 E.01421
G1 X131.591 Y107.098 E.01561
G1 X132.098 Y106.861 E.01755
G1 X132.283 Y106.992 E.00711
G1 X132.646 Y107.067 E.01162
G1 X134.683 Y107.057 E.06387
G1 X134.945 Y106.989 E.00849
G1 X135.166 Y106.804 E.00904
G1 X135.408 Y106.978 E.00935
;WIDTH:0.460686
G1 X135.541 Y107.037 E.00505
;WIDTH:0.501372
G1 X135.673 Y107.097 E.00553
;WIDTH:0.542058
G1 X135.805 Y107.156 E.006
;WIDTH:0.582744
G1 X135.937 Y107.215 E.00649
G1 X136.353 Y107.216 E.01867
;WIDTH:0.613491
G1 X136.885 Y107.124 E.02561
G1 X137.276 Y106.926 E.02079
G1 X137.276 Y107.392 E.02211
G1 X137.194 Y107.631 E.01199
G1 X136.701 Y107.711 E.0237
;WIDTH:0.582744
G1 X135.94 Y107.754 E.03421
G1 X135.805 Y107.783 E.0062
;WIDTH:0.542058
G1 X135.67 Y107.812 E.00573
;WIDTH:0.501372
G1 X135.535 Y107.84 E.00526
;WIDTH:0.460686
G1 X135.4 Y107.869 E.0048
;WIDTH:0.419999
G1 X124.995 Y108.498 E.32684
G1 X124.495 Y108.481 E.01569
G1 X123.752 Y108.386 E.02349
G1 X123.246 Y108.278 E.01622
G1 X122.405 Y108.003 E.02774
G1 X121.93 Y107.789 E.01633
G1 X121.014 Y107.252 E.03329
G1 X120.553 Y106.902 E.01815
G1 X119.961 Y106.34 E.02559
G1 X120.339 Y106.341 E.01185
M204 S1000
;WIPE_START
G1 F8640
G1 X120.399 Y106.341 E-.01385
G1 X121.107 Y106.343 E-.16348
G1 X121.385 Y106.297 E-.06506
G1 X121.618 Y106.187 E-.05949
G1 X121.808 Y106.286 E-.04947
G1 X122.172 Y106.335 E-.08481
G1 X122.512 Y106.173 E-.08696
G1 X122.714 Y105.966 E-.06678
G1 X122.829 Y106.097 E-.04025
G1 X123.038 Y106.25 E-.05981
G1 X123.358 Y106.34 E-.07676
G1 X123.699 Y106.305 E-.07915
G1 X123.93 Y106.183 E-.06032
G1 X123.981 Y106.218 E-.01428
G1 X124.308 Y106.327 E-.07953
;WIPE_END
G1 Z.4 F720
G1 X119.708 Y104.452 F10800
G1 Z.2 F720
G1 E1 F2100
M204 S800
;WIDTH:0.383033
G1 F1200
G1 X119.298 Y105.063 E.02081
;WIDTH:0.383383
G1 X119.22 Y105.454 E.01129
G1 X118.962 Y104.998 E.01483
G1 X119.075 Y104.782 E.0069
;WIDTH:0.383021
G1 X119.413 Y104.272 E.0173
;WIDTH:0.383033
G1 X119.54 Y104.386 E.00483
G1 X119.652 Y104.431 E.00341
M204 S1000
;WIPE_START
G1 F8640
G1 X119.708 Y104.452 E-.01381
G1 X119.298 Y105.063 E-.1699
G1 X119.22 Y105.454 E-.09206
G1 X118.962 Y104.998 E-.12098
G1 X119.075 Y104.782 E-.05629
G1 X119.413 Y104.272 E-.14127
G1 X119.54 Y104.386 E-.03941
G1 X119.652 Y104.431 E-.02787
;WIPE_END
G1 E-.33841 F2100
G1 Z.4 F720
G1 X121.504 Y104.731 F10800
G1 Z.2 F720
G1 E1 F2100
M204 S800
;WIDTH:0.403724
G1 F1200
G1 X121.436 Y104.77 E.00235
G1 X121.504 Y104.809 E.00235
G1 X121.527 Y104.77 E.00136
M204 S1000
;WIPE_START
G1 F8640
G1 X121.504 Y104.809 E-.01045
G1 X121.436 Y104.77 E-.0181
G1 X121.504 Y104.731 E-.0181
;WIPE_END
G1 E-.95335 F2100
G1 Z.4 F720
G1 X123.883 Y104.432 F10800
G1 Z.2 F720
G1 E1 F2100
M204 S800
;WIDTH:0.42834
G1 F1200
G1 X123.983 Y104.645 E.00754
M204 S1000
;WIPE_START
G1 F8640
G1 X123.883 Y104.432 E-.05433
;WIPE_END
G1 E-.94567 F2100
G1 Z.4 F720
G1 X118.601 Y105.009 F10800
G1 Z.2 F720
G1 E1 F2100
M204 S800
;TYPE:External perimeter
;WIDTH:0.419999
G1 F1200
G1 X118.594 Y104.988 E.00069
G1 X118.623 Y104.877 E.0036
G1 X118.778 Y104.586 E.01034
G1 X119.25 Y103.898 E.02616
G1 X119.598 Y103.466 E.01739
;WIDTH:0.407315
G1 X119.544 Y103.691 E.00701
;WIDTH:0.419999
G1 X119.571 Y103.898 E.00655
G1 X119.735 Y104.085 E.0078
G1 X120.1 Y104.165 E.01172
G1 X120.344 Y104.164 E.00765
G1 X119.645 Y105.172 E.03846
G1 X119.57 Y105.54 E.01178
;WIDTH:0.454465
G1 X119.583 Y105.656 E.00399
;WIDTH:0.48893
G1 X119.596 Y105.772 E.00433
;WIDTH:0.494987
G1 X119.724 Y105.92 E.00736
G1 X119.874 Y105.945 E.00572
;WIDTH:0.457493
G1 X120.024 Y105.969 E.00524
;WIDTH:0.419999
G1 X120.765 Y105.967 E.02323
G1 X121.308 Y105.928 E.01707
;WIDTH:0.42923
G1 X121.529 Y105.762 E.00888
;WIDTH:0.466978
G1 X121.601 Y105.513 E.00914
G1 X121.751 Y105.811 E.01176
;WIDTH:0.420728
G1 X121.977 Y105.949 E.00832
;WIDTH:0.419999
G1 X122.098 Y105.965 E.00383
G1 X122.327 Y105.844 E.00812
G1 X122.558 Y105.455 E.01419
G1 X122.724 Y104.946 E.01679
G1 X123.004 Y105.716 E.02569
G1 X123.177 Y105.893 E.00776
G1 X123.393 Y105.964 E.00713
G1 X123.603 Y105.94 E.00663
;WIDTH:0.448012
G1 X123.811 Y105.781 E.00882
;WIDTH:0.492161
G1 X123.861 Y105.673 E.00445
;WIDTH:0.536309
G1 X123.911 Y105.564 E.00492
G1 X123.979 Y105.662 E.00489
;WIDTH:0.497539
G1 X124.048 Y105.759 E.0045
;WIDTH:0.458769
G1 X124.116 Y105.857 E.00412
;WIDTH:0.419999
G1 X124.364 Y105.959 E.00841
G1 X124.553 Y105.926 E.00602
G1 X124.737 Y105.778 E.0074
G1 X124.915 Y105.522 E.00978
G1 X125.107 Y105.814 E.01096
G1 X125.341 Y105.958 E.00861
G1 X125.607 Y105.931 E.00838
G1 X125.808 Y105.771 E.00806
G1 X125.861 Y105.637 E.00452
G1 X125.835 Y105.359 E.00875
G1 X125.429 Y104.638 E.02594
G1 X125.6 Y104.338 E.01083
;WIDTH:0.44813
G1 X125.893 Y103.819 E.02008
G1 X125.947 Y104.063 E.00842
;WIDTH:0.429434
G1 X126.114 Y104.316 E.00974
;WIDTH:0.419999
G1 X126.325 Y104.464 E.00808
