; generated by PrusaSlicer 2.9.4 on 2026-01-17 at 14:52:24 UTC


;
;
; 

; external perimeters extrusion width = 0.45mm
; perimeters extrusion width = 0.45mm
; infill extrusion width = 0.45mm
; solid infill extrusion width = 0.45mm
; top infill extrusion width = 0.40mm
; first layer extrusion width = 0.42mm

M73 P0 R24
M73 Q0 S24
M201 X1000 Y1000 Z200 E5000 ; sets maximum accelerations, mm/sec^2
M203 X200 Y200 Z12 E120 ; sets maximum feedrates, mm / sec
M204 S1250 T1250 ; sets acceleration (S) and retract acceleration (R), mm/sec^2
M205 X8.00 Y8.00 Z0.40 E4.50 ; sets the jerk limits, mm/sec
M205 S0 T0 ; sets the minimum extruding and travel feed rate, mm/sec

; printing object Ender_3_Prusa+Knob.stl id:0 copy 0
; stop printing object Ender_3_Prusa+Knob.stl id:0 copy 0

;TYPE:Custom
M862.3 P "MK3S" ; printer model check
M862.1 P0.4 ; nozzle diameter check
M115 U3.14.1 ; tell printer latest fw version
G90 ; use absolute coordinates
M83 ; extruder relative mode
M104 S250 ; set extruder temp
M140 S85 ; set bed temp
M190 S85 ; wait for bed temp
M109 S250 ; wait for extruder temp
G28 W ; home all without mesh bed level
G80 X110.748 Y94.8168 W28.5043 H28.5072 ; mesh bed levelling

G1 Z0.2 F720
G1 Y-3 F1000 ; go outside print area
G92 E0
G1 X60 E9 F1000 ; intro line
G1 X100 E12.5 F1000 ; intro line

G92 E0
M221 S95

; Don't change E values below. Excessive value can damage the printer.

M907 E538 ; set extruder motor current
G21 ; set units to millimeters
G90 ; use absolute coordinates
M83 ; use relative distances for extrusion

M900 K0.08 ; Filament gcode LA 1.5
M900 K45 ; Filament gcode LA 1.0




M107
;LAYER_CHANGE
;Z:0.2
;HEIGHT:0.2
G1 E-1 F2100
G1 Z.4 F720
G1 X114.818 Y99.369 F10800
G1 Z.2 F720
G1 E1 F2100
M204 S800
;TYPE:Skirt/Brim
;WIDTH:0.42
G1 F1200
G1 X115.889 Y98.353 E.04629
G1 X116.843 Y97.615 E.03782
G1 X117.994 Y96.876 E.04289
G1 X119.4 Y96.165 E.0494
G1 X120.496 Y95.747 E.03678
G1 X121.711 Y95.397 E.03964
G1 X123.366 Y95.1 E.05272
G1 X125.685 Y95.022 E.07275
G1 X126.99 Y95.148 E.04111
G1 X128.438 Y95.43 E.04625
G1 X129.561 Y95.767 E.03676
G1 X131.029 Y96.36 E.04964
G1 X132.789 Y97.357 E.06342
G1 X134.672 Y98.862 E.07558
G1 X135.512 Y99.724 E.03774
G1 X136.301 Y100.695 E.03923
G1 X137.072 Y101.851 E.04357
G1 X137.627 Y102.885 E.0368
G1 X138.272 Y104.418 E.05215
G1 X138.676 Y105.785 E.04469
G1 X138.92 Y107.079 E.04129
G1 X139.049 Y108.57 E.04692
G1 X139.038 Y109.977 E.04412
G1 X138.832 Y111.605 E.05145
G1 X138.588 Y112.712 E.03554
G1 X138.238 Y113.817 E.03634
G1 X137.752 Y115.003 E.04019
G1 X137.219 Y116.038 E.0365
G1 X136.154 Y117.638 E.06026
G1 X135.227 Y118.726 E.04482
G1 X133.451 Y120.318 E.07478
G1 X132.131 Y121.192 E.04964
G1 X130.093 Y122.177 E.07097
G1 X128.818 Y122.606 E.04218
G1 X127.16 Y122.97 E.05322
G1 X125.542 Y123.124 E.05096
G1 X124.162 Y123.107 E.04327
G1 X123.038 Y122.998 E.03541
G1 X121.689 Y122.739 E.04307
G1 X120.274 Y122.32 E.04627
G1 X119.158 Y121.863 E.03781
G1 X117.942 Y121.235 E.04291
G1 X116.613 Y120.366 E.04979
G1 X115.361 Y119.312 E.05131
G1 X114.454 Y118.375 E.04089
G1 X113.624 Y117.346 E.04145
G1 X112.857 Y116.168 E.04407
G1 X112.055 Y114.564 E.05623
G1 X111.648 Y113.488 E.03607
G1 X111.23 Y111.93 E.05058
G1 X111.034 Y110.765 E.03704
G1 X110.937 Y109.185 E.04963
G1 X111.102 Y106.928 E.07096
G1 X111.369 Y105.609 E.0422
G1 X111.839 Y104.107 E.04935
G1 X112.514 Y102.6 E.05177
G1 X113.13 Y101.533 E.03863
G1 X113.92 Y100.408 E.0431
G1 X114.779 Y99.414 E.04119
M204 S1000
G1 X115.064 Y99.66 F10800
M204 S800
G1 F1200
G1 X115.087 Y99.634 E.00109
G1 X116.141 Y98.633 E.04558
G1 X117.054 Y97.928 E.03617
G1 X118.175 Y97.207 E.04179
G1 X119.569 Y96.503 E.04897
G1 X121.793 Y95.765 E.07347
G1 X123.421 Y95.473 E.05186
G1 X125.677 Y95.399 E.07077
G1 X126.927 Y95.52 E.03938
G1 X128.353 Y95.798 E.04555
G1 X129.43 Y96.121 E.03525
G1 X130.874 Y96.704 E.04883
G1 X132.591 Y97.678 E.06189
G1 X134.422 Y99.144 E.07354
G1 X135.225 Y99.969 E.0361
G1 X136.002 Y100.925 E.03863
G1 X136.752 Y102.051 E.04242
G1 X137.284 Y103.042 E.03527
G1 X137.915 Y104.54 E.05097
G1 X138.307 Y105.863 E.04326
G1 X138.547 Y107.132 E.04049
G1 X138.672 Y108.584 E.04569
G1 X138.661 Y109.963 E.04324
G1 X138.46 Y111.545 E.05
G1 X138.221 Y112.623 E.03462
G1 X137.413 Y114.837 E.0739
G1 X136.896 Y115.843 E.03546
G1 X135.851 Y117.414 E.05916
G1 X134.952 Y118.468 E.04344
G1 X133.231 Y120.012 E.07249
G1 X131.932 Y120.872 E.04885
G1 X129.971 Y121.821 E.06831
G1 X128.726 Y122.24 E.04119
G1 X127.11 Y122.596 E.05188
G1 X125.53 Y122.747 E.04977
G1 X124.18 Y122.731 E.04233
G1 X123.097 Y122.626 E.03412
M73 Q1 S24
G1 X121.784 Y122.374 E.04192
G1 X120.39 Y121.961 E.04559
G1 X119.323 Y121.524 E.03615
G1 X118.139 Y120.913 E.04178
G1 X116.831 Y120.058 E.049
M73 P1 R24
G1 X115.616 Y119.033 E.04984
G1 X114.739 Y118.128 E.03951
G1 X113.933 Y117.13 E.04022
G1 X113.187 Y115.987 E.0428
G1 X112.398 Y114.407 E.05537
G1 X112.007 Y113.374 E.03463
G1 X111.597 Y111.844 E.04966
G1 X111.409 Y110.728 E.03548
G1 X111.314 Y109.173 E.04885
G1 X111.473 Y107 E.06832
G1 X111.732 Y105.712 E.04119
G1 X112.194 Y104.233 E.04858
G1 X112.853 Y102.765 E.05045
G1 X113.447 Y101.738 E.0372
G1 X114.212 Y100.646 E.0418
G1 X115.025 Y99.706 E.03897
M204 S1000
;WIPE_START
G1 F8640
G1 X115.064 Y99.66 E-.01393
G1 X115.087 Y99.634 E-.00802
G1 X116.141 Y98.633 E-.33564
G1 X117.054 Y97.928 E-.26635
G1 X118.175 Y97.207 E-.30776
G1 X118.439 Y97.074 E-.0683
;WIPE_END
G1 Z.4 F720
; printing object Ender_3_Prusa+Knob.stl id:0 copy 0
G1 X124.552 Y98.342 F10800
G1 Z.2 F720
G1 E1 F2100
M204 S800
;TYPE:External perimeter
;WIDTH:0.422852
G1 F1200
G1 X125.11 Y98.323 E.01764
;WIDTH:0.42168
G1 X126.333 Y98.399 E.03859
;WIDTH:0.420954
G1 X127.09 Y98.525 E.02412
;WIDTH:0.424661
G1 X127.676 Y98.656 E.01906
G1 X128.434 Y98.88 E.02509
;WIDTH:0.422651
G1 X129.18 Y99.157 E.02513
;WIDTH:0.424618
G1 X129.649 Y99.371 E.01636
;WIDTH:0.424838
G1 X130.354 Y99.742 E.0253
;WIDTH:0.426035
G1 X131.028 Y100.159 E.02525
G1 X131.663 Y100.623 E.02505
;WIDTH:0.425501
G1 X132.461 Y101.303 E.03335
;WIDTH:0.420669
G1 X132.997 Y101.851 E.02408
;WIDTH:0.422596
G1 X133.366 Y102.284 E.01796
;WIDTH:0.424693
G1 X133.973 Y103.107 E.03246
;WIDTH:0.429172
G1 X134.537 Y104.054 E.0354
;WIDTH:0.421826
G1 X134.834 Y104.674 E.02166
;WIDTH:0.416023
G1 X135.119 Y105.38 E.02362
;WIDTH:0.422264
G1 X135.322 Y106.003 E.02067
;WIDTH:0.42521
G1 X135.452 Y106.494 E.01615
;WIDTH:0.425699
G1 X135.598 Y107.198 E.02288
G1 X135.703 Y107.98 E.02511
;WIDTH:0.424956
G1 X135.76 Y109.048 E.03397
;WIDTH:0.422076
G1 X135.733 Y109.84 E.02498
;WIDTH:0.424782
G1 X135.679 Y110.352 E.01635
G1 X135.552 Y111.135 E.02519
;WIDTH:0.42378
G1 X135.321 Y112.091 E.03115
;WIDTH:0.423664
G1 X135.133 Y112.662 E.01903
;WIDTH:0.423873
G1 X134.843 Y113.397 E.02503
G1 X134.411 Y114.275 E.031
;WIDTH:0.420616
G1 X134.018 Y114.933 E.02407
G1 X133.575 Y115.56 E.02411
;WIDTH:0.421151
G1 X133.088 Y116.153 E.02413
;WIDTH:0.424663
G1 X132.681 Y116.595 E.01907
G1 X132.109 Y117.14 E.02508
;WIDTH:0.422652
G1 X131.495 Y117.648 E.02516
;WIDTH:0.42462
G1 X131.076 Y117.946 E.01632
;WIDTH:0.424838
G1 X130.402 Y118.372 E.02532
;WIDTH:0.426036
G1 X129.704 Y118.747 E.02524
G1 X128.985 Y119.065 E.02504
;WIDTH:0.425498
G1 X127.996 Y119.416 E.03338
;WIDTH:0.420668
G1 X127.254 Y119.606 E.02406
;WIDTH:0.419518
G1 X126.499 Y119.74 E.02401
;WIDTH:0.415849
G1 X125.738 Y119.819 E.02372
;WIDTH:0.429269
G1 X125.119 Y119.839 E.0199
G1 X124.335 Y119.823 E.02519
;WIDTH:0.424914
G1 X123.543 Y119.742 E.02529
G1 X123.032 Y119.661 E.01643
;WIDTH:0.421348
G1 X122.385 Y119.516 E.02086
;WIDTH:0.418965
G1 X121.653 Y119.305 E.02382
G1 X120.935 Y119.037 E.02396
;WIDTH:0.418474
G1 X120.238 Y118.719 E.02392
;WIDTH:0.41747
G1 X119.602 Y118.375 E.02252
;WIDTH:0.421237
G1 X118.964 Y117.979 E.02362
;WIDTH:0.419375
G1 X118.301 Y117.487 E.02584
;WIDTH:0.418498
G1 X117.721 Y116.987 E.02391
;WIDTH:0.424799
G1 X117.357 Y116.634 E.0161
G1 X116.698 Y115.904 E.03123
;WIDTH:0.423928
G1 X116.331 Y115.43 E.01899
G1 X115.933 Y114.846 E.02239
;WIDTH:0.422756
G1 X115.414 Y113.949 E.03273
;WIDTH:0.420237
G1 X115.092 Y113.252 E.02409
;WIDTH:0.421152
G1 X114.822 Y112.534 E.02413
;WIDTH:0.424663
G1 X114.643 Y111.96 E.01909
G1 X114.457 Y111.192 E.02508
;WIDTH:0.422651
G1 X114.325 Y110.407 E.02513
;WIDTH:0.424618
G1 X114.276 Y109.895 E.01632
;WIDTH:0.424838
G1 X114.244 Y109.099 E.0253
;WIDTH:0.426038
G1 X114.268 Y108.307 E.02524
G1 X114.352 Y107.524 E.02509
;WIDTH:0.425499
G1 X114.543 Y106.493 E.03336
;WIDTH:0.42067
G1 X114.749 Y105.754 E.0241
;WIDTH:0.419518
G1 X115.011 Y105.034 E.02399
;WIDTH:0.41585
G1 X115.323 Y104.335 E.02374
;WIDTH:0.429274
G1 X115.615 Y103.789 E.01989
G1 X116.021 Y103.119 E.02517
;WIDTH:0.424918
G1 X116.487 Y102.473 E.0253
G1 X116.813 Y102.072 E.01642
;WIDTH:0.421349
G1 X117.262 Y101.583 E.02089
;WIDTH:0.418962
G1 X117.811 Y101.055 E.02382
G1 X118.402 Y100.567 E.02396
;WIDTH:0.418471
G1 X119.026 Y100.123 E.02392
;WIDTH:0.422081
G1 X119.6 Y99.764 E.02134
G1 X120.299 Y99.391 E.02498
;WIDTH:0.424781
G1 X120.77 Y99.182 E.01636
G1 X121.514 Y98.899 E.02527
G1 X122.272 Y98.67 E.02514
G1 X123.042 Y98.5 E.02504
;WIDTH:0.423616
G1 X124.018 Y98.36 E.03121
;WIDTH:0.422852
G1 X124.492 Y98.344 E.01498
M204 S1000
G1 X124.527 Y97.951 F10800
M204 S800
G1 F1200
G1 X125.116 Y97.945 E.01861
;WIDTH:0.42168
G1 X125.617 Y97.954 E.01578
;WIDTH:0.421067
G1 X126.429 Y98.031 E.02565
;WIDTH:0.422284
G1 X127.217 Y98.164 E.02521
G1 X127.958 Y98.34 E.02402
;WIDTH:0.418932
G1 X128.713 Y98.576 E.02473
;WIDTH:0.419398
G1 X129.455 Y98.863 E.0249
G1 X130.166 Y99.208 E.02474
;WIDTH:0.418632
G1 X130.855 Y99.598 E.02473
;WIDTH:0.418787
G1 X131.518 Y100.038 E.02487
G1 X132.141 Y100.525 E.02471
;WIDTH:0.42099
G1 X132.742 Y101.049 E.02507
G1 X133.306 Y101.63 E.02546
;WIDTH:0.422596
G1 X133.66 Y102.045 E.01722
;WIDTH:0.424693
G1 X133.994 Y102.474 E.01726
G1 X134.294 Y102.907 E.01672
;WIDTH:0.429172
G1 X134.6 Y103.39 E.01836
G1 X134.879 Y103.892 E.01845
;WIDTH:0.421826
G1 X135.18 Y104.534 E.02234
;WIDTH:0.416258
G1 X135.476 Y105.276 E.0248
;WIDTH:0.419943
G1 X135.723 Y106.027 E.02478
G1 X135.909 Y106.796 E.0248
;WIDTH:0.419002
G1 X136.039 Y107.579 E.02482
;WIDTH:0.418477
G1 X136.109 Y108.368 E.02474
;WIDTH:0.422076
G1 X136.136 Y109.163 E.02508
;WIDTH:0.419394
G1 X136.103 Y109.957 E.02488
G1 X136.005 Y110.741 E.02473
;WIDTH:0.418107
G1 X135.854 Y111.521 E.02479
;WIDTH:0.419405
G1 X135.656 Y112.29 E.02486
G1 X135.397 Y113.037 E.02475
;WIDTH:0.418129
G1 X135.085 Y113.771 E.02488
;WIDTH:0.42179
G1 X134.699 Y114.535 E.02697
G1 X134.319 Y115.164 E.02315
;WIDTH:0.423139
G1 X133.795 Y115.896 E.02846
G1 X133.338 Y116.444 E.02256
;WIDTH:0.422279
G1 X132.814 Y116.998 E.02405
;WIDTH:0.418932
G1 X132.232 Y117.533 E.02472
;WIDTH:0.419399
G1 X131.612 Y118.032 E.02491
G1 X130.959 Y118.476 E.02472
;WIDTH:0.418633
G1 X130.276 Y118.878 E.02476
;WIDTH:0.418785
G1 X129.563 Y119.232 E.02488
G1 X128.83 Y119.528 E.02471
;WIDTH:0.420988
G1 X128.076 Y119.786 E.02505
G1 X127.291 Y119.984 E.02545
;WIDTH:0.42044
G1 X126.535 Y120.111 E.02406
;WIDTH:0.415888
G1 X125.737 Y120.193 E.02488
;WIDTH:0.429269
G1 X125.117 Y120.225 E.01994
G1 X124.302 Y120.202 E.02619
;WIDTH:0.424914
G1 X123.484 Y120.119 E.02612
G1 X122.948 Y120.03 E.01726
;WIDTH:0.421348
G1 X122.28 Y119.873 E.02159
;WIDTH:0.419005
G1 X121.515 Y119.655 E.02488
G1 X120.773 Y119.376 E.02479
;WIDTH:0.41848
G1 X120.054 Y119.046 E.0247
;WIDTH:0.417394
G1 X119.398 Y118.684 E.02333
;WIDTH:0.419375
G1 X118.681 Y118.243 E.02635
G1 X118.051 Y117.767 E.02472
;WIDTH:0.418411
G1 X117.452 Y117.248 E.02475
;WIDTH:0.416645
G1 X116.887 Y116.686 E.02476
;WIDTH:0.419534
G1 X116.364 Y116.092 E.02478
G1 X115.886 Y115.458 E.02486
;WIDTH:0.417919
G1 X115.458 Y114.789 E.02476
;WIDTH:0.42104
G1 X115.063 Y114.092 E.02519
;WIDTH:0.423138
G1 X114.692 Y113.274 E.0284
G1 X114.446 Y112.605 E.02254
;WIDTH:0.422281
G1 X114.227 Y111.874 E.02407
;WIDTH:0.418932
G1 X114.055 Y111.102 E.02473
;WIDTH:0.419397
G1 X113.933 Y110.316 E.0249
G1 X113.876 Y109.528 E.02473
;WIDTH:0.418633
G1 X113.869 Y108.736 E.02474
;WIDTH:0.418787
G1 X113.919 Y107.942 E.02486
G1 X114.029 Y107.159 E.02471
;WIDTH:0.420991
G1 X114.182 Y106.377 E.02505
G1 X114.403 Y105.598 E.02546
;WIDTH:0.420441
G1 X114.672 Y104.88 E.02407
;WIDTH:0.41589
G1 X114.999 Y104.148 E.02486
;WIDTH:0.429274
G1 X115.282 Y103.595 E.01996
G1 X115.709 Y102.9 E.0262
;WIDTH:0.424918
G1 X116.19 Y102.234 E.02609
G1 X116.535 Y101.814 E.01726
;WIDTH:0.421349
G1 X117.004 Y101.314 E.02157
;WIDTH:0.419003
G1 X117.576 Y100.761 E.02488
G1 X118.189 Y100.257 E.02482
;WIDTH:0.418479
G1 X118.837 Y99.801 E.02474
;WIDTH:0.418895
G1 X119.512 Y99.38 E.02487
;WIDTH:0.419392
G1 X120.216 Y99.012 E.02487
G1 X120.944 Y98.704 E.02474
;WIDTH:0.418104
G1 X121.692 Y98.444 E.0247
G1 X122.46 Y98.235 E.02483
G1 X123.238 Y98.085 E.02472
;WIDTH:0.419466
G1 X124.022 Y97.982 E.02476
;WIDTH:0.422852
G1 X124.467 Y97.954 E.01409
M204 S1000
;LAYER_CHANGE
;Z:0.4
;HEIGHT:0.2
;BEFORE_LAYER_CHANGE
G92 E0.0
;0.4


;WIPE_START
G1 F8640
G1 X124.527 Y97.951 E-.01387
G1 X125.116 Y97.945 E-.13601
G1 X125.617 Y97.954 E-.1157
G1 X126.429 Y98.031 E-.18833
G1 X127.217 Y98.164 E-.18452
G1 X127.958 Y98.34 E-.17586
G1 X128.713 Y98.576 E-.18265
G1 X128.725 Y98.581 E-.00306
;WIPE_END
G1 Z.4 F720
;AFTER_LAYER_CHANGE
;0.4
M140 S90 ; set bed temperature
; stop printing object Ender_3_Prusa+Knob.stl id:0 copy 0
G1 Z.6
G1 X124.37 Y95.066 F10800
G1 Z.4 F720
G1 E1 F2100
;TYPE:Skirt/Brim
;WIDTH:0.42
G1 F1267
G1 X125.685 Y95.022 E.04125
G1 X126.99 Y95.148 E.04111
G1 X128.438 Y95.43 E.04625
G1 X129.561 Y95.767 E.03676
G1 X131.029 Y96.36 E.04964
G1 X132.789 Y97.357 E.06342
G1 X134.672 Y98.862 E.07558
G1 X135.512 Y99.724 E.03774
G1 X136.301 Y100.695 E.03923
G1 X137.072 Y101.851 E.04357
G1 X137.627 Y102.885 E.0368
G1 X138.272 Y104.418 E.05215
G1 X138.676 Y105.785 E.04469
G1 X138.92 Y107.079 E.04129
G1 X139.049 Y108.57 E.04692
G1 X139.038 Y109.977 E.04412
G1 X138.832 Y111.605 E.05145
G1 X138.588 Y112.712 E.03554
G1 X138.238 Y113.817 E.03634
G1 X137.752 Y115.003 E.04019
G1 X137.219 Y116.038 E.0365
G1 X136.154 Y117.638 E.06026
G1 X135.227 Y118.726 E.04482
G1 X133.451 Y120.318 E.07478
G1 X132.131 Y121.192 E.04964
G1 X130.093 Y122.177 E.07097
G1 X128.818 Y122.606 E.04218
G1 X127.16 Y122.97 E.05322
G1 X125.542 Y123.124 E.05096
G1 X124.162 Y123.107 E.04327
G1 X123.038 Y122.998 E.03541
G1 X121.689 Y122.739 E.04307
G1 X120.274 Y122.32 E.04627
G1 X119.158 Y121.863 E.03781
G1 X117.942 Y121.235 E.04291
G1 X116.613 Y120.366 E.04979
G1 X115.361 Y119.312 E.05131
G1 X114.454 Y118.375 E.04089
G1 X113.624 Y117.346 E.04145
G1 X112.857 Y116.168 E.04407
G1 X112.055 Y114.564 E.05623
G1 X111.648 Y113.488 E.03607
G1 X111.23 Y111.93 E.05058
G1 X111.034 Y110.765 E.03704
G1 X110.937 Y109.185 E.04963
G1 X111.102 Y106.928 E.07096
G1 X111.369 Y105.609 E.0422
G1 X111.839 Y104.107 E.04935
G1 X112.514 Y102.6 E.05177
G1 X113.13 Y101.533 E.03863
G1 X113.92 Y100.408 E.0431
G1 X114.818 Y99.369 E.04306
G1 X115.889 Y98.353 E.04629
G1 X116.843 Y97.615 E.03782
G1 X117.994 Y96.876 E.04289
M73 P1 R23
G1 X119.4 Y96.165 E.0494
G1 X120.496 Y95.747 E.03678
G1 X121.711 Y95.397 E.03964
G1 X123.366 Y95.1 E.05272
G1 X124.31 Y95.068 E.02962
G1 X124.322 Y95.443 F10800
G1 F1267
G1 X125.677 Y95.399 E.04251
G1 X126.927 Y95.52 E.03938
G1 X128.353 Y95.798 E.04555
G1 X129.43 Y96.121 E.03525
G1 X130.874 Y96.704 E.04883
G1 X132.591 Y97.678 E.06189
G1 X134.422 Y99.144 E.07354
G1 X135.225 Y99.969 E.0361
G1 X136.002 Y100.925 E.03863
G1 X136.752 Y102.051 E.04242
G1 X137.284 Y103.042 E.03527
G1 X137.915 Y104.54 E.05097
G1 X138.307 Y105.863 E.04326
G1 X138.547 Y107.132 E.04049
G1 X138.672 Y108.584 E.04569
G1 X138.661 Y109.963 E.04324
G1 X138.46 Y111.545 E.05
G1 X138.221 Y112.623 E.03462
M73 Q2 S24
G1 X137.413 Y114.837 E.0739
G1 X136.896 Y115.843 E.03546
G1 X135.851 Y117.414 E.05916
G1 X134.952 Y118.468 E.04344
M73 P2 R23
G1 X133.231 Y120.012 E.07249
G1 X131.932 Y120.872 E.04885
G1 X129.971 Y121.821 E.06831
G1 X128.726 Y122.24 E.04119
G1 X127.11 Y122.596 E.05188
G1 X125.53 Y122.747 E.04977
G1 X124.18 Y122.731 E.04233
G1 X123.097 Y122.626 E.03412
