; generated by PrusaSlicer 2.9.4 on 2026-01-10 at 15:50:24 UTC


;
;
; 

; external perimeters extrusion width = 0.45mm
; perimeters extrusion width = 0.45mm
; infill extrusion width = 0.45mm
; solid infill extrusion width = 0.45mm
; top infill extrusion width = 0.40mm
; support material extrusion width = 0.35mm
; first layer extrusion width = 0.42mm

M73 P0 R57
M73 Q0 S57
M201 X1000 Y1000 Z200 E8000 ; sets maximum accelerations, mm/sec^2
M203 X200 Y200 Z12 E120 ; sets maximum feedrates, mm / sec
M204 S1250 T1250 ; sets acceleration (S) and retract acceleration (R), mm/sec^2
M205 X8.00 Y8.00 Z0.40 E4.50 ; sets the jerk limits, mm/sec
M205 S0 T0 ; sets the minimum extruding and travel feed rate, mm/sec

; printing object tinker.obj id:0 copy 0
; stop printing object tinker.obj id:0 copy 0

;TYPE:Custom
M862.3 P "MK3SMMU3" ; printer model check
M862.1 P0.4 ; nozzle diameter check
M115 U3.14.1 ; tell printer latest fw version
G90 ; use absolute coordinates
M83 ; extruder relative mode
M104 S230 ; set extruder temp
M140 S85 ; set bed temp
M190 S85 ; wait for bed temp
M109 S230 ; wait for extruder temp
G28 W ; home all without mesh bed level
G80 X81.8205 Y21.9261 W158.294 H33.7118 ; mesh bed levelling

; Send the filament type to the MMU unit.
; E stands for extruder number, F stands for filament type (0: default; 1:flex; 2: PVA)
M403 E0 F0
M403 E1 F0
M403 E2 F0
M403 E3 F0
M403 E4 F0


;go outside print area
G1 Y-3 F1000
G1 Z0.4 F1000
; select extruder
T0
; initial load
G1 X55 E29 F1073
G1 X5 E29 F1800
G1 X55 E8 F2000
G1 Z0.3 F1000
G92 E0
G1 X240 E25 F2200
G1 Y-2 F1000
G1 X55 E25 F1400
G1 Z0.2 F1000
M73 P0 R56
G1 X5 E4 F1000
G92 E0


M221 S95
G92 E0

; Don't change E values below. Excessive value can damage the printer.

M907 E538 ; set extruder motor current
G21 ; set units to millimeters
G90 ; use absolute coordinates
M83 ; use relative distances for extrusion

M900 K0.08 ; Filament gcode LA 1.5
M900 K45 ; Filament gcode LA 1.0




M107
;LAYER_CHANGE
;Z:0.2
;HEIGHT:0.2
G1 E-1 F2100
G1 Z.4 F720
G1 X82.009 Y24.303 F10800
G1 Z.2 F720
G1 E1 F2100
M204 S800
;TYPE:Skirt/Brim
;WIDTH:0.42
G1 F1200
G1 X82.4 Y23.055 E.04101
G1 X83.433 Y22.253 E.041
G1 X84.198 Y22.115 E.02437
G1 X221.588 Y22.115 E4.30777
G1 X222.714 Y22.427 E.03664
G1 X234.249 Y29.348 E.42178
G1 X234.671 Y29.677 E.01678
G1 X236.978 Y31.984 E.1023
G1 X237.388 Y32.553 E.02199
G1 X239.695 Y37.167 E.16174
G1 X239.926 Y38.146 E.03154
G1 X239.926 Y50.954 E.40159
G1 X239.535 Y52.202 E.04101
G1 X238.716 Y52.911 E.03396
G1 X234.102 Y55.218 E.16174
G1 X233.123 Y55.449 E.03154
G1 X84.198 Y55.449 E4.66944
G1 X82.949 Y55.059 E.04103
M73 P1 R56
M73 Q1 S57
G1 X82.147 Y54.026 E.041
G1 X82.009 Y53.261 E.02437
G1 X82.009 Y24.363 E.90608
M204 S1000
;WIPE_START
G1 F8640
M73 Q1 S56
G1 X82.009 Y24.303 E-.01385
G1 X82.4 Y23.055 E-.30198
G1 X83.433 Y22.253 E-.30197
G1 X84.198 Y22.115 E-.17949
G1 X85.076 Y22.115 E-.20271
;WIPE_END
G1 Z.4 F720
; printing object tinker.obj id:0 copy 0
G1 X94.699 Y31.224 F10800
G1 Z.2 F720
G1 E1 F2100
M204 S800
;TYPE:Support material
G1 F1200
G1 X100.347 Y31.224 E.17709
G1 X100.347 Y24.303 E.217
G1 X113.155 Y24.303 E.40159
G1 X113.155 Y35.997 E.36666
G1 X97.319 Y35.997 E.49653
G1 X97.038 Y36.278 E.01246
G1 X97.038 Y38.676 E.07519
G1 X97.319 Y38.957 E.01246
G1 X216.716 Y38.957 E3.74361
G1 X216.998 Y38.676 E.01248
G1 X216.998 Y36.278 E.07519
G1 X216.716 Y35.997 E.01248
G1 X183.402 Y35.997 E1.04454
G1 X183.402 Y34.804 E.03741
G1 X177.753 Y34.804 E.17712
G1 X177.753 Y35.997 E.03741
G1 X167.252 Y35.997 E.32925
G1 X167.252 Y34.804 E.03741
G1 X163.911 Y34.804 E.10475
G1 X163.911 Y35.997 E.03741
G1 X116.497 Y35.997 E1.48663
G1 X116.497 Y26.61 E.29432
G1 X118.804 Y26.61 E.07233
G1 X118.804 Y24.303 E.07233
G1 X221.588 Y24.303 E3.22272
G1 X221.588 Y31.224 E.217
G1 X233.123 Y31.224 E.36167
G1 X233.123 Y33.532 E.07237
G1 X235.43 Y33.532 E.07233
G1 X235.43 Y38.146 E.14467
G1 X237.738 Y38.146 E.07237
G1 X237.738 Y50.954 E.40159
G1 X233.123 Y50.954 E.1447
G1 X233.123 Y53.261 E.07233
G1 X208.78 Y53.261 E.76326
G1 X208.78 Y48.647 E.14467
G1 X201.859 Y48.647 E.217
G1 X201.859 Y46.34 E.07233
G1 X200.824 Y46.34 E.03245
G1 X200.824 Y48.647 E.07233
G1 X186.982 Y48.647 E.43401
G1 X186.982 Y53.261 E.14467
G1 X167.252 Y53.261 E.61862
G1 X167.252 Y48.647 E.14467
M73 P2 R56
M73 Q2 S56
G1 X163.911 Y48.647 E.10475
G1 X163.911 Y50.954 E.07233
G1 X153.41 Y50.954 E.32925
G1 X153.41 Y48.647 E.07233
G1 X103.927 Y48.647 E1.5515
G1 X103.927 Y53.261 E.14467
G1 X84.198 Y53.261 E.61859
G1 X84.198 Y24.303 E.90796
G1 X94.699 Y24.303 E.32925
G1 X94.699 Y31.168 E.21525
M204 S1000
;WIPE_START
G1 F8640
G1 X94.699 Y26.837 E-1
;WIPE_END
G1 Z.4 F720
G1 X213.319 Y41.997 F10800
G1 Z.2 F720
G1 E1 F2100
M204 S800
G1 F1200
G1 X224.716 Y41.997 E.35734
G1 X224.998 Y42.278 E.01248
G1 X224.998 Y44.676 E.07519
G1 X224.716 Y44.957 E.01248
G1 X213.319 Y44.957 E.35734
G1 X213.038 Y44.676 E.01246
G1 X213.038 Y42.278 E.07519
G1 X213.279 Y42.037 E.01069
M204 S1000
;WIPE_START
G1 F8640
G1 X213.038 Y42.278 E-.0787
G1 X213.038 Y44.676 E-.5537
G1 X213.319 Y44.957 E-.09176
M73 P2 R55
G1 X214.514 Y44.957 E-.27584
;WIPE_END
G1 Z.4 F720
G1 X237.221 Y50.784 F10800
G1 Z.2 F720
G1 E1 F2100
M204 S800
G1 F1200
G1 X237.221 Y38.485 E.38563
G1 X236.802 Y38.485 E.01314
G1 X236.802 Y50.614 E.3803
G1 X236.383 Y50.614 E.01314
G1 X236.383 Y38.485 E.3803
G1 X235.964 Y38.485 E.01314
G1 X235.964 Y50.614 E.3803
G1 X235.545 Y50.614 E.01314
G1 X235.545 Y38.485 E.3803
G1 X235.126 Y38.485 E.01314
G1 X235.126 Y50.614 E.3803
G1 X234.707 Y50.614 E.01314
G1 X234.707 Y33.871 E.52497
G1 X234.289 Y33.871 E.01311
G1 X234.289 Y50.614 E.52497
G1 X233.87 Y50.614 E.01314
G1 X233.87 Y33.871 E.52497
G1 X233.451 Y33.871 E.01314
G1 X233.451 Y50.614 E.52497
G1 X233.032 Y50.614 E.01314
G1 X233.032 Y33.871 E.52497
G1 X232.784 Y33.871 E.00778
G1 X232.784 Y31.564 E.07233
G1 X232.613 Y31.564 E.00536
G1 X232.613 Y52.922 E.66967
G1 X232.194 Y52.922 E.01314
G1 X232.194 Y31.564 E.66967
G1 X231.775 Y31.564 E.01314
G1 X231.775 Y52.922 E.66967
G1 X231.356 Y52.922 E.01314
G1 X231.356 Y31.564 E.66967
G1 X230.937 Y31.564 E.01314
G1 X230.937 Y52.922 E.66967
G1 X230.518 Y52.922 E.01314
G1 X230.518 Y31.564 E.66967
G1 X230.099 Y31.564 E.01314
G1 X230.099 Y52.922 E.66967
G1 X229.68 Y52.922 E.01314
G1 X229.68 Y31.564 E.66967
G1 X229.261 Y31.564 E.01314
G1 X229.261 Y52.922 E.66967
G1 X228.842 Y52.922 E.01314
G1 X228.842 Y31.564 E.66967
G1 X228.423 Y31.564 E.01314
G1 X228.423 Y52.922 E.66967
G1 X228.004 Y52.922 E.01314
G1 X228.004 Y31.564 E.66967
G1 X227.585 Y31.564 E.01314
M73 Q2 S55
G1 X227.585 Y52.922 E.66967
G1 X227.166 Y52.922 E.01314
G1 X227.166 Y31.564 E.66967
G1 X226.747 Y31.564 E.01314
M73 P3 R55
M73 Q3 S55
G1 X226.747 Y52.922 E.66967
G1 X226.328 Y52.922 E.01314
G1 X226.328 Y31.564 E.66967
G1 X225.909 Y31.564 E.01314
G1 X225.909 Y52.922 E.66967
G1 X225.49 Y52.922 E.01314
G1 X225.49 Y31.564 E.66967
G1 X225.071 Y31.564 E.01314
G1 X225.071 Y41.872 E.3232
G1 X224.857 Y41.657 E.00951
G1 X224.652 Y41.657 E.00643
G1 X224.652 Y31.564 E.31646
G1 X224.233 Y31.564 E.01314
G1 X224.233 Y41.657 E.31646
G1 X223.814 Y41.657 E.01314
G1 X223.814 Y31.564 E.31646
G1 X223.395 Y31.564 E.01314
G1 X223.395 Y41.657 E.31646
G1 X222.976 Y41.657 E.01314
G1 X222.976 Y31.564 E.31646
G1 X222.557 Y31.564 E.01314
G1 X222.557 Y41.657 E.31646
G1 X222.138 Y41.657 E.01314
G1 X222.138 Y31.564 E.31646
G1 X221.719 Y31.564 E.01314
G1 X221.719 Y41.657 E.31646
G1 X221.3 Y41.657 E.01314
G1 X221.249 Y24.643 E.53346
G1 X220.881 Y24.643 E.01154
G1 X220.881 Y41.657 E.53346
G1 X220.462 Y41.657 E.01314
G1 X220.462 Y24.643 E.53346
G1 X220.043 Y24.643 E.01314
G1 X220.043 Y41.657 E.53346
G1 X219.624 Y41.657 E.01314
G1 X219.624 Y24.643 E.53346
G1 X219.205 Y24.643 E.01314
G1 X219.205 Y41.657 E.53346
G1 X218.786 Y41.657 E.01314
G1 X218.786 Y24.643 E.53346
G1 X218.367 Y24.643 E.01314
G1 X218.367 Y41.657 E.53346
G1 X217.948 Y41.657 E.01314
G1 X217.948 Y24.643 E.53346
G1 X217.529 Y24.643 E.01314
G1 X217.529 Y41.657 E.53346
G1 X217.11 Y41.657 E.01314
G1 X217.11 Y39.043 E.08196
G1 X216.857 Y39.296 E.01122
G1 X216.691 Y39.296 E.0052
G1 X216.691 Y41.657 E.07403
G1 X216.273 Y41.657 E.01311
G1 X216.273 Y39.296 E.07403
G1 X215.854 Y39.296 E.01314
G1 X215.854 Y41.657 E.07403
G1 X215.435 Y41.657 E.01314
G1 X215.435 Y39.296 E.07403
G1 X215.016 Y39.296 E.01314
G1 X215.016 Y41.657 E.07403
G1 X214.597 Y41.657 E.01314
G1 X214.597 Y39.296 E.07403
G1 X214.178 Y39.296 E.01314
G1 X214.178 Y41.657 E.07403
G1 X213.759 Y41.657 E.01314
G1 X213.759 Y39.296 E.07403
G1 X213.34 Y39.296 E.01314
G1 X213.34 Y41.657 E.07403
G1 X213.178 Y41.657 E.00508
G1 X212.921 Y41.915 E.01142
G1 X212.921 Y39.296 E.08212
G1 X212.502 Y39.296 E.01314
G1 X212.502 Y52.922 E.42723
G1 X212.921 Y52.922 E.01314
G1 X212.921 Y45.039 E.24717
G1 X213.178 Y45.296 E.0114
G1 X213.34 Y45.296 E.00508
G1 X213.34 Y52.922 E.23911
G1 X213.759 Y52.922 E.01314
G1 X213.759 Y45.296 E.23911
G1 X214.178 Y45.296 E.01314
G1 X214.178 Y52.922 E.23911
G1 X214.597 Y52.922 E.01314
G1 X214.597 Y45.296 E.23911
G1 X215.016 Y45.296 E.01314
G1 X215.016 Y52.922 E.23911
G1 X215.435 Y52.922 E.01314
G1 X215.435 Y45.296 E.23911
G1 X215.854 Y45.296 E.01314
G1 X215.854 Y52.922 E.23911
G1 X216.273 Y52.922 E.01314
G1 X216.273 Y45.296 E.23911
G1 X216.691 Y45.296 E.01311
G1 X216.691 Y52.922 E.23911
G1 X217.11 Y52.922 E.01314
G1 X217.11 Y45.296 E.23911
G1 X217.529 Y45.296 E.01314
G1 X217.529 Y52.922 E.23911
G1 X217.948 Y52.922 E.01314
G1 X217.948 Y45.296 E.23911
G1 X218.367 Y45.296 E.01314
G1 X218.367 Y52.922 E.23911
G1 X218.786 Y52.922 E.01314
G1 X218.786 Y45.296 E.23911
G1 X219.205 Y45.296 E.01314
G1 X219.205 Y52.922 E.23911
G1 X219.624 Y52.922 E.01314
G1 X219.624 Y45.296 E.23911
G1 X220.043 Y45.296 E.01314
G1 X220.043 Y52.922 E.23911
G1 X220.462 Y52.922 E.01314
G1 X220.462 Y45.296 E.23911
G1 X220.881 Y45.296 E.01314
G1 X220.881 Y52.922 E.23911
G1 X221.3 Y52.922 E.01314
G1 X221.3 Y45.296 E.23911
G1 X221.719 Y45.296 E.01314
G1 X221.719 Y52.922 E.23911
G1 X222.138 Y52.922 E.01314
G1 X222.138 Y45.296 E.23911
G1 X222.557 Y45.296 E.01314
G1 X222.557 Y52.922 E.23911
G1 X222.976 Y52.922 E.01314
G1 X222.976 Y45.296 E.23911
G1 X223.395 Y45.296 E.01314
G1 X223.395 Y52.922 E.23911
G1 X223.814 Y52.922 E.01314
G1 X223.814 Y45.296 E.23911
G1 X224.233 Y45.296 E.01314
G1 X224.233 Y52.922 E.23911
G1 X224.652 Y52.922 E.01314
G1 X224.652 Y45.296 E.23911
G1 X224.857 Y45.296 E.00643
G1 X225.071 Y45.082 E.00949
G1 X225.071 Y53.091 E.25112
M204 S1000
;WIPE_START
G1 F8640
G1 X225.071 Y48.76 E-1
;WIPE_END
G1 Z.4 F720
G1 X217.11 Y36.151 F10800
G1 Z.2 F720
G1 E1 F2100
M73 P4 R55
M204 S800
G1 F1200
G1 X217.11 Y24.643 E.36083
G1 X216.691 Y24.643 E.01314
M73 Q4 S55
G1 X216.691 Y35.657 E.34534
G1 X216.273 Y35.657 E.01311
G1 X216.273 Y24.643 E.34534
G1 X215.854 Y24.643 E.01314
M73 P4 R54
G1 X215.854 Y35.657 E.34534
G1 X215.435 Y35.657 E.01314
G1 X215.435 Y24.643 E.34534
G1 X215.016 Y24.643 E.01314
G1 X215.016 Y35.657 E.34534
G1 X214.597 Y35.657 E.01314
G1 X214.597 Y24.643 E.34534
G1 X214.178 Y24.643 E.01314
G1 X214.178 Y35.657 E.34534
G1 X213.759 Y35.657 E.01314
G1 X213.759 Y24.643 E.34534
G1 X213.34 Y24.643 E.01314
G1 X213.34 Y35.657 E.34534
G1 X212.921 Y35.657 E.01314
G1 X212.921 Y24.643 E.34534
G1 X212.502 Y24.643 E.01314
G1 X212.502 Y35.657 E.34534
G1 X212.083 Y35.657 E.01314
G1 X212.083 Y24.643 E.34534
G1 X211.664 Y24.643 E.01314
G1 X211.664 Y35.657 E.34534
G1 X211.245 Y35.657 E.01314
G1 X211.245 Y24.643 E.34534
G1 X210.826 Y24.643 E.01314
G1 X210.826 Y35.657 E.34534
G1 X210.407 Y35.657 E.01314
G1 X210.407 Y24.643 E.34534
G1 X209.988 Y24.643 E.01314
G1 X209.988 Y35.657 E.34534
G1 X209.569 Y35.657 E.01314
G1 X209.569 Y24.643 E.34534
G1 X209.15 Y24.643 E.01314
G1 X209.15 Y35.657 E.34534
G1 X208.731 Y35.657 E.01314
G1 X208.731 Y24.643 E.34534
G1 X208.312 Y24.643 E.01314
G1 X208.312 Y35.657 E.34534
G1 X207.893 Y35.657 E.01314
G1 X207.893 Y24.643 E.34534
G1 X207.474 Y24.643 E.01314
G1 X207.474 Y35.657 E.34534
G1 X207.055 Y35.657 E.01314
G1 X207.055 Y24.643 E.34534
G1 X206.636 Y24.643 E.01314
G1 X206.636 Y35.657 E.34534
G1 X206.217 Y35.657 E.01314
G1 X206.217 Y24.643 E.34534
G1 X205.798 Y24.643 E.01314
G1 X205.798 Y35.657 E.34534
G1 X205.379 Y35.657 E.01314
G1 X205.379 Y24.643 E.34534
G1 X204.96 Y24.643 E.01314
G1 X204.96 Y35.657 E.34534
G1 X204.541 Y35.657 E.01314
G1 X204.541 Y24.643 E.34534
G1 X204.122 Y24.643 E.01314
G1 X204.122 Y35.657 E.34534
G1 X203.703 Y35.657 E.01314
G1 X203.703 Y24.643 E.34534
G1 X203.284 Y24.643 E.01314
G1 X203.284 Y35.657 E.34534
G1 X202.865 Y35.657 E.01314
G1 X202.865 Y24.643 E.34534
G1 X202.446 Y24.643 E.01314
G1 X202.446 Y35.657 E.34534
G1 X202.027 Y35.657 E.01314
G1 X202.027 Y24.643 E.34534
G1 X201.608 Y24.643 E.01314
G1 X201.608 Y35.657 E.34534
G1 X201.189 Y35.657 E.01314
G1 X201.189 Y24.643 E.34534
G1 X200.77 Y24.643 E.01314
G1 X200.77 Y35.657 E.34534
G1 X200.351 Y35.657 E.01314
M73 Q4 S54
G1 X200.351 Y24.643 E.34534
G1 X199.932 Y24.643 E.01314
G1 X199.932 Y35.657 E.34534
G1 X199.513 Y35.657 E.01314
G1 X199.513 Y24.643 E.34534
G1 X199.094 Y24.643 E.01314
G1 X199.094 Y35.657 E.34534
G1 X198.675 Y35.657 E.01314
G1 X198.675 Y24.643 E.34534
G1 X198.256 Y24.643 E.01314
G1 X198.256 Y35.657 E.34534
G1 X197.838 Y35.657 E.01311
G1 X197.838 Y24.643 E.34534
G1 X197.419 Y24.643 E.01314
G1 X197.419 Y35.657 E.34534
G1 X197 Y35.657 E.01314
G1 X197 Y24.643 E.34534
G1 X196.581 Y24.643 E.01314
G1 X196.581 Y35.657 E.34534
G1 X196.162 Y35.657 E.01314
G1 X196.162 Y24.643 E.34534
G1 X195.743 Y24.643 E.01314
G1 X195.743 Y35.657 E.34534
G1 X195.324 Y35.657 E.01314
G1 X195.324 Y24.643 E.34534
G1 X194.905 Y24.643 E.01314
G1 X194.905 Y35.657 E.34534
G1 X194.486 Y35.657 E.01314
G1 X194.486 Y24.643 E.34534
G1 X194.067 Y24.643 E.01314
G1 X194.067 Y35.657 E.34534
G1 X193.648 Y35.657 E.01314
G1 X193.648 Y24.643 E.34534
G1 X193.229 Y24.643 E.01314
G1 X193.229 Y35.657 E.34534
G1 X192.81 Y35.657 E.01314
G1 X192.81 Y24.643 E.34534
G1 X192.391 Y24.643 E.01314
M73 P5 R54
M73 Q5 S54
G1 X192.391 Y35.657 E.34534
G1 X191.972 Y35.657 E.01314
G1 X191.972 Y24.643 E.34534
G1 X191.553 Y24.643 E.01314
G1 X191.553 Y35.657 E.34534
G1 X191.134 Y35.657 E.01314
G1 X191.134 Y24.643 E.34534
G1 X190.715 Y24.643 E.01314
G1 X190.715 Y35.657 E.34534
G1 X190.296 Y35.657 E.01314
G1 X190.296 Y24.643 E.34534
G1 X189.877 Y24.643 E.01314
G1 X189.877 Y35.657 E.34534
G1 X189.458 Y35.657 E.01314
G1 X189.458 Y24.643 E.34534
G1 X189.039 Y24.643 E.01314
G1 X189.039 Y35.657 E.34534
G1 X188.62 Y35.657 E.01314
G1 X188.62 Y24.643 E.34534
G1 X188.201 Y24.643 E.01314
G1 X188.201 Y35.657 E.34534
G1 X187.782 Y35.657 E.01314
G1 X187.782 Y24.643 E.34534
G1 X187.363 Y24.643 E.01314
G1 X187.363 Y35.657 E.34534
G1 X186.944 Y35.657 E.01314
G1 X186.944 Y24.643 E.34534
G1 X186.525 Y24.643 E.01314
G1 X186.525 Y35.657 E.34534
G1 X186.106 Y35.657 E.01314
G1 X186.106 Y24.643 E.34534
G1 X185.687 Y24.643 E.01314
G1 X185.687 Y35.657 E.34534
G1 X185.268 Y35.657 E.01314
G1 X185.268 Y24.643 E.34534
G1 X184.849 Y24.643 E.01314
G1 X184.849 Y35.657 E.34534
G1 X184.43 Y35.657 E.01314
G1 X184.43 Y24.643 E.34534
G1 X184.011 Y24.643 E.01314
G1 X184.011 Y35.657 E.34534
G1 X183.741 Y35.657 E.00847
G1 X183.741 Y34.465 E.03737
G1 X183.592 Y34.465 E.00467
G1 X183.592 Y24.643 E.30796
G1 X183.173 Y24.643 E.01314
G1 X183.173 Y34.465 E.30796
G1 X182.754 Y34.465 E.01314
G1 X182.754 Y24.643 E.30796
G1 X182.335 Y24.643 E.01314
G1 X182.335 Y34.465 E.30796
G1 X181.916 Y34.465 E.01314
G1 X181.916 Y24.643 E.30796
G1 X181.497 Y24.643 E.01314
G1 X181.497 Y34.465 E.30796
G1 X181.078 Y34.465 E.01314
G1 X181.078 Y24.643 E.30796
G1 X180.659 Y24.643 E.01314
G1 X180.659 Y34.465 E.30796
G1 X180.24 Y34.465 E.01314
G1 X180.24 Y24.643 E.30796
G1 X179.822 Y24.643 E.01311
G1 X179.822 Y34.465 E.30796
G1 X179.403 Y34.465 E.01314
G1 X179.403 Y24.643 E.30796
G1 X178.984 Y24.643 E.01314
G1 X178.984 Y34.465 E.30796
G1 X178.565 Y34.465 E.01314
G1 X178.565 Y24.643 E.30796
G1 X178.146 Y24.643 E.01314
G1 X178.146 Y34.465 E.30796
G1 X177.727 Y34.465 E.01314
G1 X177.727 Y24.643 E.30796
G1 X177.308 Y24.643 E.01314
G1 X177.308 Y35.657 E.34534
